def Program():
  Clay_extruderTcp = p[0, 0.15985, 0.058, -1.5708, -0, 0]
  Clay_extruderWeight = 4.36
  Clay_extruderCog = [0, 0.15985, 0.058]
  Zone000 = 0.
  set_tcp(Clay_extruderTcp)
  set_payload(Clay_extruderWeight, Clay_extruderCog)
  movej([-0.5019, -1.0911, -2.6218, -2.5703, -0.5019, -3.1416], a=3.1416, v=0.1571, r=Zone000)

  set_analog_out(0, 0.16010400000000002)
  movel([-0.5019696394549769, -1.091121021901266, -2.621789518986837, -2.570289913808004, -0.5019696394549769, -3.141599957142965], a=1, v=0.0028641738480770125, r=Zone000)
  set_analog_out(0, 0.49188733333333334)
  movel([-0.5549381414996546, -1.1079214254962366, -2.6146915594684046, -2.5605841318713587, -0.5549381414996546, -3.1416011492358606], a=1, v=0.12000001791662336, r=Zone000)
  set_analog_out(0, 0.49188733333333334)
  movel([-1.2057464758502405, -1.4075349012957972, -2.436887327824728, -2.4387601057635706, -1.2057464758502405, -3.141592566167013], a=1, v=0.12000004581327235, r=Zone000)
  set_analog_out(0, 0.310272)
  movel([-1.2352436224566858, -1.4262655417071741, -2.4220595995532435, -2.4348564783679407, -1.2352436224566858, -3.1415913740741175], a=1, v=0.00513114091410131, r=Zone000)
  set_analog_out(0, 0.49188733333333334)
  movel([-1.2454422155963343, -1.4484146277057093, -2.404116694127218, -2.43065053621401, -1.2454422155963343, -3.1415911356555384], a=1, v=0.12000000210882501, r=Zone000)
  set_analog_out(0, 0.49181091666666665)
  movel([-1.3177970091449183, -1.6345627943622034, -2.2257826964007776, -2.422835652028219, -1.3177970091449183, -3.1415908972369593], a=1, v=0.11888093663356303, r=Zone000)
  set_analog_out(0, 0.35857225)
  movel([-1.3231499830829065, -1.651008431111471, -2.2076361815081995, -2.424537245427267, -1.3231499830829065, -3.1415908972369593], a=1, v=0.006883524411278915, r=Zone000)
  set_analog_out(0, 0.4918875833333333)
  movel([-1.298701588307516, -1.6403544584857386, -2.219435993825094, -2.4233909288989466, -1.298701588307516, -3.1415911356555384], a=1, v=0.12000433849192257, r=Zone000)
  set_analog_out(0, 0.49188733333333334)
  movel([-1.0692933241473597, -1.5602324644671839, -2.30296236673464, -2.4199863115893763, -1.0692933241473597, -3.141592089329855], a=1, v=0.1200001967788842, r=Zone000)
  set_analog_out(0, -1.1085205)
  movel([-1.0441010634051722, -1.5535152594195765, -2.309544626866476, -2.4201210180865687, -1.0441010634051722, -3.141592089329855], a=1, v=0.0006052277867514408, r=Zone000)
  set_analog_out(0, 0.49188733333333334)
  movel([-1.0584099928485315, -1.5404751936541956, -2.322137180958883, -2.4205690065967005, -1.0584099928485315, -3.141592089329855], a=1, v=0.11999999480574117, r=Zone000)
  set_analog_out(0, 0.49188733333333334)
  movel([-1.2151005903827112, -1.4357641378985804, -2.414447609578268, -2.43296987215151, -1.2151005903827112, -3.1415913740741175], a=1, v=0.12000014821233873, r=Zone000)
  set_analog_out(0, 0.32967691666666665)
  movel([-1.2352307478534144, -1.4262617270099085, -2.4220619837390345, -2.4348576704608362, -1.2352307478534144, -3.1415913740741175], a=1, v=0.005715732773714229, r=Zone000)
  set_analog_out(0, 0.49188733333333334)
  set_analog_out(0, 0.0)
  movel([-1.2054889837848108, -1.4072282950030726, -2.436941925679342, -2.4390111605273646, -1.2054889837848108, -3.1415913740741175], a=1, v=0.11999998374006642, r=Zone000)
  set_analog_out(0, 0.49188733333333334)
  movel([-0.5543153921710413, -1.105095688496725, -2.613201920186178, -2.564880911503927, -0.5543153921710413, -3.1415959040271204], a=1, v=0.12000002631872321, r=Zone000)
end
