def Program():
  extruder_clayTcp = p[0, 0, 0.2535, 0, 0, 1.5708]
  extruder_clayWeight = 0
  extruder_clayCog = [0, 0, 0.2535]
  Speed000 = 0.005
  Zone000 = 0
  set_tcp(extruder_clayTcp)
  set_payload(extruder_clayWeight, extruder_clayCog)
  movej([-1.148, -1.5564, -2.0564, -1.0996, 1.5708, 0.4228], a=3.1416, v=0.0157, r=Zone000)
  movej([-1.1534, -1.5501, -2.0625, -1.0998, 1.5708, 0.4174], a=3.1416, v=0.0079, r=Zone000)
  movej([-1.1588, -1.5438, -2.0686, -1.1, 1.5708, 0.412], a=3.1416, v=0.0078, r=Zone000)
  movej([-1.1643, -1.5376, -2.0746, -1.1002, 1.5708, 0.4065], a=3.1416, v=0.0078, r=Zone000)
  movej([-1.17, -1.5314, -2.0806, -1.1005, 1.5708, 0.4008], a=3.1416, v=0.0078, r=Zone000)
  movej([-1.1756, -1.5252, -2.0864, -1.1008, 1.5708, 0.3952], a=3.1416, v=0.0077, r=Zone000)
  movej([-1.1814, -1.5191, -2.0922, -1.1011, 1.5708, 0.3894], a=3.1416, v=0.0077, r=Zone000)
  movej([-1.1872, -1.5129, -2.0979, -1.1015, 1.5708, 0.3836], a=3.1416, v=0.0076, r=Zone000)
  movej([-1.1932, -1.5069, -2.1035, -1.102, 1.5708, 0.3776], a=3.1416, v=0.0076, r=Zone000)
  movej([-1.1992, -1.5008, -2.1091, -1.1025, 1.5708, 0.3716], a=3.1416, v=0.0076, r=Zone000)
  movej([-1.2052, -1.4948, -2.1146, -1.103, 1.5708, 0.3656], a=3.1416, v=0.0076, r=Zone000)
  movej([-1.2114, -1.4888, -2.12, -1.1036, 1.5708, 0.3594], a=3.1416, v=0.0077, r=Zone000)
  movej([-1.2176, -1.4829, -2.1253, -1.1042, 1.5708, 0.3531], a=3.1416, v=0.0078, r=Zone000)
  movej([-1.224, -1.477, -2.1305, -1.1048, 1.5708, 0.3468], a=3.1416, v=0.0079, r=Zone000)
  movej([-1.2304, -1.4712, -2.1357, -1.1055, 1.5708, 0.3404], a=3.1416, v=0.008, r=Zone000)
  movej([-1.2369, -1.4654, -2.1407, -1.1062, 1.5708, 0.3339], a=3.1416, v=0.0081, r=Zone000)
  movej([-1.2435, -1.4596, -2.1457, -1.107, 1.5708, 0.3273], a=3.1416, v=0.0082, r=Zone000)
  movej([-1.2502, -1.4539, -2.1507, -1.1078, 1.5708, 0.3206], a=3.1416, v=0.0083, r=Zone000)
  movej([-1.2569, -1.4483, -2.1555, -1.1086, 1.5708, 0.3139], a=3.1416, v=0.0085, r=Zone000)
  movej([-1.2638, -1.4427, -2.1603, -1.1094, 1.5708, 0.307], a=3.1416, v=0.0086, r=Zone000)
  movej([-1.2707, -1.4371, -2.1649, -1.1103, 1.5708, 0.3], a=3.1416, v=0.0087, r=Zone000)
  movej([-1.2778, -1.4316, -2.1695, -1.1112, 1.5708, 0.293], a=3.1416, v=0.0088, r=Zone000)
  movej([-1.2849, -1.4262, -2.174, -1.1122, 1.5708, 0.2859], a=3.1416, v=0.0089, r=Zone000)
  movej([-1.2922, -1.4208, -2.1785, -1.1131, 1.5708, 0.2786], a=3.1416, v=0.009, r=Zone000)
  movej([-1.2995, -1.4155, -2.1828, -1.1141, 1.5708, 0.2713], a=3.1416, v=0.0092, r=Zone000)
  movej([-1.3069, -1.4102, -2.1871, -1.1151, 1.5708, 0.2639], a=3.1416, v=0.0093, r=Zone000)
  movej([-1.3144, -1.405, -2.1913, -1.1161, 1.5708, 0.2564], a=3.1416, v=0.0094, r=Zone000)
  movej([-1.322, -1.3999, -2.1954, -1.1171, 1.5708, 0.2488], a=3.1416, v=0.0095, r=Zone000)
  movej([-1.3297, -1.3948, -2.1994, -1.1182, 1.5708, 0.2411], a=3.1416, v=0.0096, r=Zone000)
  movej([-1.3375, -1.3898, -2.2033, -1.1193, 1.5708, 0.2333], a=3.1416, v=0.0098, r=Zone000)
  movej([-1.3454, -1.3849, -2.2071, -1.1203, 1.5708, 0.2254], a=3.1416, v=0.0099, r=Zone000)
  movej([-1.3534, -1.38, -2.2109, -1.1214, 1.5708, 0.2174], a=3.1416, v=0.01, r=Zone000)
  movej([-1.3615, -1.3753, -2.2146, -1.1225, 1.5708, 0.2093], a=3.1416, v=0.0101, r=Zone000)
  movej([-1.3697, -1.3706, -2.2182, -1.1236, 1.5708, 0.2011], a=3.1416, v=0.0103, r=Zone000)
  movej([-1.378, -1.3659, -2.2217, -1.1248, 1.5708, 0.1928], a=3.1416, v=0.0104, r=Zone000)
  movej([-1.3834, -1.363, -2.2239, -1.1255, 1.5708, 0.1874], a=3.1416, v=0.0105, r=Zone000)
  movej([-1.3855, -1.3741, -2.2155, -1.1228, 1.5708, 0.1853], a=3.1416, v=0.0138, r=Zone000)
  movej([-1.3875, -1.3851, -2.207, -1.1203, 1.5708, 0.1833], a=3.1416, v=0.0137, r=Zone000)
  movej([-1.3894, -1.3959, -2.1985, -1.118, 1.5708, 0.1814], a=3.1416, v=0.0136, r=Zone000)
  movej([-1.3913, -1.4067, -2.1899, -1.1158, 1.5708, 0.1795], a=3.1416, v=0.0135, r=Zone000)
  movej([-1.3932, -1.4174, -2.1812, -1.1137, 1.5708, 0.1776], a=3.1416, v=0.0134, r=Zone000)
  movej([-1.395, -1.4281, -2.1725, -1.1118, 1.5708, 0.1758], a=3.1416, v=0.0133, r=Zone000)
  movej([-1.3968, -1.4386, -2.1637, -1.1101, 1.5708, 0.174], a=3.1416, v=0.0132, r=Zone000)
  movej([-1.3986, -1.4491, -2.1548, -1.1085, 1.5708, 0.1722], a=3.1416, v=0.0131, r=Zone000)
  movej([-1.4003, -1.4595, -2.1459, -1.107, 1.5708, 0.1705], a=3.1416, v=0.013, r=Zone000)
  movej([-1.402, -1.4698, -2.1369, -1.1057, 1.5708, 0.1688], a=3.1416, v=0.0129, r=Zone000)
  movej([-1.4037, -1.48, -2.1279, -1.1045, 1.5708, 0.1671], a=3.1416, v=0.0128, r=Zone000)
  movej([-1.4053, -1.4902, -2.1187, -1.1035, 1.5708, 0.1655], a=3.1416, v=0.0127, r=Zone000)
  movej([-1.4069, -1.5003, -2.1096, -1.1025, 1.5708, 0.1639], a=3.1416, v=0.0126, r=Zone000)
  movej([-1.4084, -1.5104, -2.1003, -1.1017, 1.5708, 0.1623], a=3.1416, v=0.0126, r=Zone000)
  movej([-1.41, -1.5203, -2.091, -1.1011, 1.5708, 0.1608], a=3.1416, v=0.0125, r=Zone000)
  movej([-1.4115, -1.5302, -2.0816, -1.1005, 1.5708, 0.1593], a=3.1416, v=0.0124, r=Zone000)
  movej([-1.413, -1.5401, -2.0722, -1.1001, 1.5708, 0.1578], a=3.1416, v=0.0123, r=Zone000)
  movej([-1.4144, -1.5499, -2.0627, -1.0998, 1.5708, 0.1564], a=3.1416, v=0.0122, r=Zone000)
  movej([-1.4158, -1.5596, -2.0532, -1.0996, 1.5708, 0.155], a=3.1416, v=0.0122, r=Zone000)
  movej([-1.4172, -1.5693, -2.0435, -1.0995, 1.5708, 0.1536], a=3.1416, v=0.0121, r=Zone000)
  movej([-1.4186, -1.579, -2.0339, -1.0996, 1.5708, 0.1522], a=3.1416, v=0.0121, r=Zone000)
  movej([-1.4199, -1.5886, -2.0241, -1.0997, 1.5708, 0.1509], a=3.1416, v=0.0122, r=Zone000)
  movej([-1.4213, -1.5981, -2.0143, -1.1, 1.5708, 0.1495], a=3.1416, v=0.0122, r=Zone000)
  movej([-1.4226, -1.6076, -2.0045, -1.1003, 1.5708, 0.1482], a=3.1416, v=0.0123, r=Zone000)
  movej([-1.4238, -1.617, -1.9945, -1.1008, 1.5708, 0.147], a=3.1416, v=0.0124, r=Zone000)
  movej([-1.4251, -1.6264, -1.9846, -1.1014, 1.5708, 0.1457], a=3.1416, v=0.0125, r=Zone000)
  movej([-1.4263, -1.6358, -1.9745, -1.1021, 1.5708, 0.1445], a=3.1416, v=0.0126, r=Zone000)
  movej([-1.4275, -1.6451, -1.9644, -1.1029, 1.5708, 0.1433], a=3.1416, v=0.0126, r=Zone000)
  movej([-1.4287, -1.6544, -1.9542, -1.1038, 1.5708, 0.1421], a=3.1416, v=0.0127, r=Zone000)
  movej([-1.4299, -1.6636, -1.944, -1.1047, 1.5708, 0.1409], a=3.1416, v=0.0128, r=Zone000)
  movej([-1.431, -1.6728, -1.9337, -1.1058, 1.5708, 0.1398], a=3.1416, v=0.0129, r=Zone000)
  movej([-1.4322, -1.682, -1.9234, -1.107, 1.5708, 0.1386], a=3.1416, v=0.0129, r=Zone000)
  movej([-1.4333, -1.6912, -1.9129, -1.1083, 1.5708, 0.1375], a=3.1416, v=0.013, r=Zone000)
  movej([-1.4344, -1.7003, -1.9025, -1.1097, 1.5708, 0.1364], a=3.1416, v=0.0131, r=Zone000)
  movej([-1.4351, -1.7061, -1.8957, -1.1106, 1.5708, 0.1357], a=3.1416, v=0.0132, r=Zone000)
  movej([-1.4277, -1.701, -1.9017, -1.1098, 1.5708, 0.1431], a=3.1416, v=0.0092, r=Zone000)
  movej([-1.4202, -1.6959, -1.9075, -1.109, 1.5708, 0.1506], a=3.1416, v=0.0093, r=Zone000)
  movej([-1.4127, -1.6908, -1.9133, -1.1082, 1.5708, 0.1581], a=3.1416, v=0.0094, r=Zone000)
  movej([-1.4052, -1.6858, -1.9191, -1.1075, 1.5708, 0.1656], a=3.1416, v=0.0095, r=Zone000)
  movej([-1.3975, -1.6808, -1.9247, -1.1068, 1.5708, 0.1733], a=3.1416, v=0.0095, r=Zone000)
  movej([-1.3899, -1.6759, -1.9303, -1.1062, 1.5708, 0.1809], a=3.1416, v=0.0096, r=Zone000)
  movej([-1.3821, -1.671, -1.9358, -1.1056, 1.5708, 0.1887], a=3.1416, v=0.0097, r=Zone000)
  movej([-1.3744, -1.6662, -1.9412, -1.105, 1.5708, 0.1964], a=3.1416, v=0.0097, r=Zone000)
  movej([-1.3665, -1.6614, -1.9465, -1.1045, 1.5708, 0.2043], a=3.1416, v=0.0098, r=Zone000)
  movej([-1.3586, -1.6566, -1.9518, -1.104, 1.5708, 0.2122], a=3.1416, v=0.0099, r=Zone000)
  movej([-1.3507, -1.6519, -1.957, -1.1035, 1.5708, 0.2201], a=3.1416, v=0.0099, r=Zone000)
  movej([-1.3427, -1.6473, -1.9621, -1.1031, 1.5708, 0.2281], a=3.1416, v=0.01, r=Zone000)
  movej([-1.3346, -1.6427, -1.9671, -1.1026, 1.5708, 0.2362], a=3.1416, v=0.0101, r=Zone000)
  movej([-1.3265, -1.6381, -1.972, -1.1023, 1.5708, 0.2443], a=3.1416, v=0.0101, r=Zone000)
  movej([-1.3183, -1.6336, -1.9769, -1.1019, 1.5708, 0.2525], a=3.1416, v=0.0102, r=Zone000)
  movej([-1.3101, -1.6291, -1.9817, -1.1016, 1.5708, 0.2607], a=3.1416, v=0.0103, r=Zone000)
  movej([-1.3018, -1.6247, -1.9864, -1.1013, 1.5708, 0.269], a=3.1416, v=0.0103, r=Zone000)
  movej([-1.2935, -1.6203, -1.991, -1.101, 1.5708, 0.2773], a=3.1416, v=0.0104, r=Zone000)
  movej([-1.2851, -1.616, -1.9956, -1.1008, 1.5708, 0.2857], a=3.1416, v=0.0105, r=Zone000)
  movej([-1.2767, -1.6118, -2.0001, -1.1005, 1.5708, 0.2941], a=3.1416, v=0.0105, r=Zone000)
  movej([-1.2682, -1.6076, -2.0045, -1.1003, 1.5708, 0.3026], a=3.1416, v=0.0106, r=Zone000)
  movej([-1.2597, -1.6035, -2.0088, -1.1002, 1.5708, 0.3111], a=3.1416, v=0.0107, r=Zone000)
  movej([-1.2511, -1.5994, -2.013, -1.1, 1.5708, 0.3197], a=3.1416, v=0.0107, r=Zone000)
  movej([-1.2425, -1.5953, -2.0172, -1.0999, 1.5708, 0.3283], a=3.1416, v=0.0108, r=Zone000)
  movej([-1.2338, -1.5914, -2.0212, -1.0998, 1.5708, 0.337], a=3.1416, v=0.0108, r=Zone000)
  movej([-1.2251, -1.5875, -2.0252, -1.0997, 1.5708, 0.3457], a=3.1416, v=0.0109, r=Zone000)
  movej([-1.2164, -1.5836, -2.0291, -1.0996, 1.5708, 0.3544], a=3.1416, v=0.011, r=Zone000)
  movej([-1.2075, -1.5798, -2.033, -1.0996, 1.5708, 0.3633], a=3.1416, v=0.011, r=Zone000)
  movej([-1.1987, -1.5761, -2.0367, -1.0995, 1.5708, 0.3721], a=3.1416, v=0.0111, r=Zone000)
  movej([-1.1898, -1.5725, -2.0404, -1.0995, 1.5708, 0.381], a=3.1416, v=0.0111, r=Zone000)
  movej([-1.1809, -1.5689, -2.044, -1.0995, 1.5708, 0.3899], a=3.1416, v=0.0112, r=Zone000)
  movej([-1.1719, -1.5654, -2.0475, -1.0995, 1.5708, 0.3989], a=3.1416, v=0.0112, r=Zone000)
  movej([-1.1629, -1.5619, -2.0509, -1.0996, 1.5708, 0.4079], a=3.1416, v=0.0113, r=Zone000)
  movej([-1.1538, -1.5585, -2.0543, -1.0996, 1.5708, 0.417], a=3.1416, v=0.0113, r=Zone000)
  movej([-1.148, -1.5505, -2.0479, -1.114, 1.5708, 0.4228], a=3.1416, v=0.0128, r=Zone000)
  movej([-1.1534, -1.5441, -2.0541, -1.1142, 1.5708, 0.4174], a=3.1416, v=0.0079, r=Zone000)
  movej([-1.1588, -1.5379, -2.0601, -1.1144, 1.5708, 0.412], a=3.1416, v=0.0079, r=Zone000)
  movej([-1.1643, -1.5316, -2.0661, -1.1147, 1.5708, 0.4065], a=3.1416, v=0.0078, r=Zone000)
  movej([-1.17, -1.5254, -2.072, -1.115, 1.5708, 0.4008], a=3.1416, v=0.0078, r=Zone000)
  movej([-1.1756, -1.5192, -2.0778, -1.1154, 1.5708, 0.3952], a=3.1416, v=0.0077, r=Zone000)
  movej([-1.1814, -1.513, -2.0836, -1.1158, 1.5708, 0.3894], a=3.1416, v=0.0077, r=Zone000)
  movej([-1.1872, -1.5069, -2.0893, -1.1162, 1.5708, 0.3836], a=3.1416, v=0.0077, r=Zone000)
  movej([-1.1932, -1.5008, -2.0949, -1.1167, 1.5708, 0.3776], a=3.1416, v=0.0076, r=Zone000)
  movej([-1.1992, -1.4947, -2.1004, -1.1172, 1.5708, 0.3716], a=3.1416, v=0.0076, r=Zone000)
  movej([-1.2052, -1.4887, -2.1058, -1.1178, 1.5708, 0.3656], a=3.1416, v=0.0076, r=Zone000)
  movej([-1.2114, -1.4827, -2.1112, -1.1184, 1.5708, 0.3594], a=3.1416, v=0.0077, r=Zone000)
  movej([-1.2176, -1.4768, -2.1165, -1.1191, 1.5708, 0.3531], a=3.1416, v=0.0078, r=Zone000)
  movej([-1.224, -1.4709, -2.1217, -1.1198, 1.5708, 0.3468], a=3.1416, v=0.0079, r=Zone000)
  movej([-1.2304, -1.4651, -2.1268, -1.1205, 1.5708, 0.3404], a=3.1416, v=0.008, r=Zone000)
  movej([-1.2369, -1.4593, -2.1319, -1.1212, 1.5708, 0.3339], a=3.1416, v=0.0081, r=Zone000)
  movej([-1.2435, -1.4535, -2.1369, -1.122, 1.5708, 0.3273], a=3.1416, v=0.0082, r=Zone000)
  movej([-1.2502, -1.4478, -2.1418, -1.1229, 1.5708, 0.3206], a=3.1416, v=0.0083, r=Zone000)
  movej([-1.2569, -1.4421, -2.1466, -1.1237, 1.5708, 0.3139], a=3.1416, v=0.0085, r=Zone000)
  movej([-1.2638, -1.4365, -2.1513, -1.1246, 1.5708, 0.307], a=3.1416, v=0.0086, r=Zone000)
  movej([-1.2707, -1.4309, -2.1559, -1.1255, 1.5708, 0.3], a=3.1416, v=0.0087, r=Zone000)
  movej([-1.2778, -1.4254, -2.1605, -1.1264, 1.5708, 0.293], a=3.1416, v=0.0088, r=Zone000)
  movej([-1.2849, -1.42, -2.165, -1.1274, 1.5708, 0.2859], a=3.1416, v=0.0089, r=Zone000)
  movej([-1.2922, -1.4146, -2.1694, -1.1284, 1.5708, 0.2786], a=3.1416, v=0.009, r=Zone000)
  movej([-1.2995, -1.4093, -2.1737, -1.1294, 1.5708, 0.2713], a=3.1416, v=0.0092, r=Zone000)
  movej([-1.3069, -1.404, -2.1779, -1.1304, 1.5708, 0.2639], a=3.1416, v=0.0093, r=Zone000)
  movej([-1.3144, -1.3988, -2.1821, -1.1315, 1.5708, 0.2564], a=3.1416, v=0.0094, r=Zone000)
  movej([-1.322, -1.3937, -2.1862, -1.1326, 1.5708, 0.2488], a=3.1416, v=0.0095, r=Zone000)
  movej([-1.3297, -1.3886, -2.1902, -1.1336, 1.5708, 0.2411], a=3.1416, v=0.0096, r=Zone000)
  movej([-1.3375, -1.3836, -2.1941, -1.1347, 1.5708, 0.2333], a=3.1416, v=0.0098, r=Zone000)
  movej([-1.3454, -1.3787, -2.1979, -1.1359, 1.5708, 0.2254], a=3.1416, v=0.0099, r=Zone000)
  movej([-1.3534, -1.3738, -2.2016, -1.137, 1.5708, 0.2174], a=3.1416, v=0.01, r=Zone000)
  movej([-1.3615, -1.369, -2.2053, -1.1381, 1.5708, 0.2093], a=3.1416, v=0.0101, r=Zone000)
  movej([-1.3697, -1.3643, -2.2088, -1.1392, 1.5708, 0.2011], a=3.1416, v=0.0103, r=Zone000)
  movej([-1.378, -1.3597, -2.2123, -1.1404, 1.5708, 0.1928], a=3.1416, v=0.0104, r=Zone000)
  movej([-1.3834, -1.3568, -2.2145, -1.1411, 1.5708, 0.1874], a=3.1416, v=0.0105, r=Zone000)
  movej([-1.3855, -1.3678, -2.2062, -1.1384, 1.5708, 0.1853], a=3.1416, v=0.0138, r=Zone000)
  movej([-1.3875, -1.3788, -2.1978, -1.1358, 1.5708, 0.1833], a=3.1416, v=0.0137, r=Zone000)
  movej([-1.3894, -1.3897, -2.1893, -1.1334, 1.5708, 0.1814], a=3.1416, v=0.0136, r=Zone000)
  movej([-1.3913, -1.4005, -2.1807, -1.1311, 1.5708, 0.1795], a=3.1416, v=0.0135, r=Zone000)
  movej([-1.3932, -1.4112, -2.1721, -1.129, 1.5708, 0.1776], a=3.1416, v=0.0134, r=Zone000)
  movej([-1.395, -1.4219, -2.1634, -1.1271, 1.5708, 0.1758], a=3.1416, v=0.0133, r=Zone000)
  movej([-1.3968, -1.4324, -2.1547, -1.1253, 1.5708, 0.174], a=3.1416, v=0.0132, r=Zone000)
  movej([-1.3986, -1.4429, -2.1459, -1.1236, 1.5708, 0.1722], a=3.1416, v=0.0131, r=Zone000)
  movej([-1.4003, -1.4533, -2.137, -1.1221, 1.5708, 0.1705], a=3.1416, v=0.013, r=Zone000)
  movej([-1.402, -1.4636, -2.1281, -1.1207, 1.5708, 0.1688], a=3.1416, v=0.0129, r=Zone000)
  movej([-1.4037, -1.4739, -2.1191, -1.1194, 1.5708, 0.1671], a=3.1416, v=0.0128, r=Zone000)
  movej([-1.4053, -1.4841, -2.11, -1.1183, 1.5708, 0.1655], a=3.1416, v=0.0127, r=Zone000)
  movej([-1.4069, -1.4942, -2.1009, -1.1173, 1.5708, 0.1639], a=3.1416, v=0.0127, r=Zone000)
  movej([-1.4084, -1.5043, -2.0917, -1.1164, 1.5708, 0.1623], a=3.1416, v=0.0126, r=Zone000)
  movej([-1.41, -1.5143, -2.0824, -1.1157, 1.5708, 0.1608], a=3.1416, v=0.0125, r=Zone000)
  movej([-1.4115, -1.5242, -2.0731, -1.1151, 1.5708, 0.1593], a=3.1416, v=0.0124, r=Zone000)
  movej([-1.413, -1.5341, -2.0637, -1.1146, 1.5708, 0.1578], a=3.1416, v=0.0124, r=Zone000)
  movej([-1.4144, -1.5439, -2.0542, -1.1142, 1.5708, 0.1564], a=3.1416, v=0.0123, r=Zone000)
  movej([-1.4158, -1.5537, -2.0447, -1.1139, 1.5708, 0.155], a=3.1416, v=0.0122, r=Zone000)
  movej([-1.4172, -1.5634, -2.0352, -1.1138, 1.5708, 0.1536], a=3.1416, v=0.0121, r=Zone000)
  movej([-1.4186, -1.5731, -2.0255, -1.1138, 1.5708, 0.1522], a=3.1416, v=0.0121, r=Zone000)
  movej([-1.4199, -1.5827, -2.0158, -1.1138, 1.5708, 0.1509], a=3.1416, v=0.0121, r=Zone000)
  movej([-1.4213, -1.5923, -2.0061, -1.114, 1.5708, 0.1495], a=3.1416, v=0.0122, r=Zone000)
  movej([-1.4226, -1.6018, -1.9962, -1.1143, 1.5708, 0.1482], a=3.1416, v=0.0123, r=Zone000)
  movej([-1.4238, -1.6113, -1.9864, -1.1147, 1.5708, 0.147], a=3.1416, v=0.0124, r=Zone000)
  movej([-1.4251, -1.6207, -1.9764, -1.1153, 1.5708, 0.1457], a=3.1416, v=0.0124, r=Zone000)
  movej([-1.4263, -1.6301, -1.9664, -1.1159, 1.5708, 0.1445], a=3.1416, v=0.0125, r=Zone000)
  movej([-1.4275, -1.6395, -1.9563, -1.1166, 1.5708, 0.1433], a=3.1416, v=0.0126, r=Zone000)
  movej([-1.4287, -1.6488, -1.9462, -1.1174, 1.5708, 0.1421], a=3.1416, v=0.0127, r=Zone000)
  movej([-1.4299, -1.658, -1.936, -1.1183, 1.5708, 0.1409], a=3.1416, v=0.0127, r=Zone000)
  movej([-1.431, -1.6673, -1.9257, -1.1194, 1.5708, 0.1398], a=3.1416, v=0.0128, r=Zone000)
  movej([-1.4322, -1.6765, -1.9154, -1.1205, 1.5708, 0.1386], a=3.1416, v=0.0129, r=Zone000)
  movej([-1.4333, -1.6857, -1.905, -1.1217, 1.5708, 0.1375], a=3.1416, v=0.013, r=Zone000)
  movej([-1.4344, -1.6948, -1.8946, -1.123, 1.5708, 0.1364], a=3.1416, v=0.0131, r=Zone000)
  movej([-1.4351, -1.7007, -1.8878, -1.1239, 1.5708, 0.1357], a=3.1416, v=0.0131, r=Zone000)
  movej([-1.4277, -1.6955, -1.8938, -1.1231, 1.5708, 0.1431], a=3.1416, v=0.0092, r=Zone000)
  movej([-1.4202, -1.6904, -1.8996, -1.1224, 1.5708, 0.1506], a=3.1416, v=0.0093, r=Zone000)
  movej([-1.4127, -1.6853, -1.9054, -1.1217, 1.5708, 0.1581], a=3.1416, v=0.0094, r=Zone000)
  movej([-1.4052, -1.6803, -1.9111, -1.121, 1.5708, 0.1656], a=3.1416, v=0.0095, r=Zone000)
  movej([-1.3975, -1.6753, -1.9167, -1.1203, 1.5708, 0.1733], a=3.1416, v=0.0095, r=Zone000)
  movej([-1.3899, -1.6704, -1.9223, -1.1197, 1.5708, 0.1809], a=3.1416, v=0.0096, r=Zone000)
  movej([-1.3821, -1.6655, -1.9278, -1.1192, 1.5708, 0.1887], a=3.1416, v=0.0097, r=Zone000)
  movej([-1.3744, -1.6606, -1.9332, -1.1186, 1.5708, 0.1964], a=3.1416, v=0.0097, r=Zone000)
  movej([-1.3665, -1.6558, -1.9385, -1.1181, 1.5708, 0.2043], a=3.1416, v=0.0098, r=Zone000)
  movej([-1.3586, -1.651, -1.9437, -1.1176, 1.5708, 0.2122], a=3.1416, v=0.0099, r=Zone000)
  movej([-1.3507, -1.6463, -1.9489, -1.1172, 1.5708, 0.2201], a=3.1416, v=0.0099, r=Zone000)
  movej([-1.3427, -1.6416, -1.954, -1.1168, 1.5708, 0.2281], a=3.1416, v=0.01, r=Zone000)
  movej([-1.3346, -1.637, -1.959, -1.1164, 1.5708, 0.2362], a=3.1416, v=0.0101, r=Zone000)
  movej([-1.3265, -1.6324, -1.9639, -1.116, 1.5708, 0.2443], a=3.1416, v=0.0101, r=Zone000)
  movej([-1.3183, -1.6279, -1.9688, -1.1157, 1.5708, 0.2525], a=3.1416, v=0.0102, r=Zone000)
  movej([-1.3101, -1.6234, -1.9736, -1.1154, 1.5708, 0.2607], a=3.1416, v=0.0103, r=Zone000)
  movej([-1.3018, -1.619, -1.9783, -1.1152, 1.5708, 0.269], a=3.1416, v=0.0103, r=Zone000)
  movej([-1.2935, -1.6146, -1.9829, -1.1149, 1.5708, 0.2773], a=3.1416, v=0.0104, r=Zone000)
  movej([-1.2851, -1.6103, -1.9874, -1.1147, 1.5708, 0.2857], a=3.1416, v=0.0105, r=Zone000)
  movej([-1.2767, -1.606, -1.9919, -1.1145, 1.5708, 0.2941], a=3.1416, v=0.0105, r=Zone000)
  movej([-1.2682, -1.6018, -1.9962, -1.1143, 1.5708, 0.3026], a=3.1416, v=0.0106, r=Zone000)
  movej([-1.2597, -1.5977, -2.0005, -1.1142, 1.5708, 0.3111], a=3.1416, v=0.0107, r=Zone000)
  movej([-1.2511, -1.5936, -2.0048, -1.1141, 1.5708, 0.3197], a=3.1416, v=0.0107, r=Zone000)
  movej([-1.2425, -1.5895, -2.0089, -1.114, 1.5708, 0.3283], a=3.1416, v=0.0108, r=Zone000)
  movej([-1.2338, -1.5855, -2.013, -1.1139, 1.5708, 0.337], a=3.1416, v=0.0108, r=Zone000)
  movej([-1.2251, -1.5816, -2.0169, -1.1138, 1.5708, 0.3457], a=3.1416, v=0.0109, r=Zone000)
  movej([-1.2164, -1.5778, -2.0208, -1.1138, 1.5708, 0.3544], a=3.1416, v=0.011, r=Zone000)
  movej([-1.2075, -1.574, -2.0246, -1.1138, 1.5708, 0.3633], a=3.1416, v=0.011, r=Zone000)
  movej([-1.1987, -1.5702, -2.0284, -1.1138, 1.5708, 0.3721], a=3.1416, v=0.0111, r=Zone000)
  movej([-1.1898, -1.5666, -2.032, -1.1138, 1.5708, 0.381], a=3.1416, v=0.0111, r=Zone000)
  movej([-1.1809, -1.563, -2.0356, -1.1138, 1.5708, 0.3899], a=3.1416, v=0.0112, r=Zone000)
  movej([-1.1719, -1.5595, -2.0391, -1.1138, 1.5708, 0.3989], a=3.1416, v=0.0112, r=Zone000)
  movej([-1.1629, -1.556, -2.0425, -1.1139, 1.5708, 0.4079], a=3.1416, v=0.0113, r=Zone000)
  movej([-1.1538, -1.5526, -2.0458, -1.114, 1.5708, 0.417], a=3.1416, v=0.0113, r=Zone000)
  movej([-1.148, -1.5447, -2.0394, -1.1283, 1.5708, 0.4228], a=3.1416, v=0.0128, r=Zone000)
  movej([-1.1534, -1.5384, -2.0455, -1.1285, 1.5708, 0.4174], a=3.1416, v=0.0079, r=Zone000)
  movej([-1.1588, -1.5321, -2.0515, -1.1288, 1.5708, 0.412], a=3.1416, v=0.0079, r=Zone000)
  movej([-1.1643, -1.5258, -2.0575, -1.1291, 1.5708, 0.4065], a=3.1416, v=0.0078, r=Zone000)
  movej([-1.17, -1.5196, -2.0633, -1.1295, 1.5708, 0.4008], a=3.1416, v=0.0078, r=Zone000)
  movej([-1.1756, -1.5134, -2.0691, -1.1299, 1.5708, 0.3952], a=3.1416, v=0.0078, r=Zone000)
  movej([-1.1814, -1.5072, -2.0749, -1.1303, 1.5708, 0.3894], a=3.1416, v=0.0077, r=Zone000)
  movej([-1.1872, -1.501, -2.0805, -1.1308, 1.5708, 0.3836], a=3.1416, v=0.0077, r=Zone000)
  movej([-1.1932, -1.4949, -2.0861, -1.1314, 1.5708, 0.3776], a=3.1416, v=0.0076, r=Zone000)
  movej([-1.1992, -1.4889, -2.0916, -1.1319, 1.5708, 0.3716], a=3.1416, v=0.0076, r=Zone000)
  movej([-1.2052, -1.4828, -2.097, -1.1325, 1.5708, 0.3656], a=3.1416, v=0.0076, r=Zone000)
  movej([-1.2114, -1.4769, -2.1023, -1.1332, 1.5708, 0.3594], a=3.1416, v=0.0077, r=Zone000)
  movej([-1.2176, -1.4709, -2.1076, -1.1339, 1.5708, 0.3531], a=3.1416, v=0.0078, r=Zone000)
  movej([-1.224, -1.465, -2.1128, -1.1346, 1.5708, 0.3468], a=3.1416, v=0.0079, r=Zone000)
  movej([-1.2304, -1.4591, -2.1179, -1.1354, 1.5708, 0.3404], a=3.1416, v=0.008, r=Zone000)
  movej([-1.2369, -1.4533, -2.1229, -1.1362, 1.5708, 0.3339], a=3.1416, v=0.0081, r=Zone000)
  movej([-1.2435, -1.4476, -2.1279, -1.137, 1.5708, 0.3273], a=3.1416, v=0.0082, r=Zone000)
  movej([-1.2502, -1.4418, -2.1327, -1.1378, 1.5708, 0.3206], a=3.1416, v=0.0083, r=Zone000)
  movej([-1.2569, -1.4362, -2.1375, -1.1387, 1.5708, 0.3139], a=3.1416, v=0.0085, r=Zone000)
  movej([-1.2638, -1.4305, -2.1422, -1.1396, 1.5708, 0.307], a=3.1416, v=0.0086, r=Zone000)
  movej([-1.2707, -1.425, -2.1468, -1.1406, 1.5708, 0.3], a=3.1416, v=0.0087, r=Zone000)
  movej([-1.2778, -1.4195, -2.1514, -1.1416, 1.5708, 0.293], a=3.1416, v=0.0088, r=Zone000)
  movej([-1.2849, -1.414, -2.1558, -1.1426, 1.5708, 0.2859], a=3.1416, v=0.0089, r=Zone000)
  movej([-1.2922, -1.4086, -2.1602, -1.1436, 1.5708, 0.2786], a=3.1416, v=0.009, r=Zone000)
  movej([-1.2995, -1.4033, -2.1645, -1.1446, 1.5708, 0.2713], a=3.1416, v=0.0092, r=Zone000)
  movej([-1.3069, -1.398, -2.1687, -1.1457, 1.5708, 0.2639], a=3.1416, v=0.0093, r=Zone000)
  movej([-1.3144, -1.3928, -2.1728, -1.1468, 1.5708, 0.2564], a=3.1416, v=0.0094, r=Zone000)
  movej([-1.322, -1.3877, -2.1769, -1.1479, 1.5708, 0.2488], a=3.1416, v=0.0095, r=Zone000)
  movej([-1.3297, -1.3826, -2.1808, -1.149, 1.5708, 0.2411], a=3.1416, v=0.0096, r=Zone000)
  movej([-1.3375, -1.3776, -2.1847, -1.1501, 1.5708, 0.2333], a=3.1416, v=0.0098, r=Zone000)
  movej([-1.3454, -1.3727, -2.1885, -1.1512, 1.5708, 0.2254], a=3.1416, v=0.0099, r=Zone000)
  movej([-1.3534, -1.3678, -2.1922, -1.1524, 1.5708, 0.2174], a=3.1416, v=0.01, r=Zone000)
  movej([-1.3615, -1.363, -2.1958, -1.1535, 1.5708, 0.2093], a=3.1416, v=0.0101, r=Zone000)
  movej([-1.3697, -1.3583, -2.1994, -1.1547, 1.5708, 0.2011], a=3.1416, v=0.0103, r=Zone000)
  movej([-1.378, -1.3537, -2.2028, -1.1559, 1.5708, 0.1928], a=3.1416, v=0.0104, r=Zone000)
  movej([-1.3834, -1.3508, -2.205, -1.1566, 1.5708, 0.1874], a=3.1416, v=0.0105, r=Zone000)
  movej([-1.3855, -1.3618, -2.1967, -1.1538, 1.5708, 0.1853], a=3.1416, v=0.0138, r=Zone000)
  movej([-1.3875, -1.3728, -2.1884, -1.1512, 1.5708, 0.1833], a=3.1416, v=0.0137, r=Zone000)
  movej([-1.3894, -1.3837, -2.18, -1.1487, 1.5708, 0.1814], a=3.1416, v=0.0136, r=Zone000)
  movej([-1.3913, -1.3945, -2.1715, -1.1464, 1.5708, 0.1795], a=3.1416, v=0.0135, r=Zone000)
  movej([-1.3932, -1.4052, -2.1629, -1.1442, 1.5708, 0.1776], a=3.1416, v=0.0134, r=Zone000)
  movej([-1.395, -1.4159, -2.1543, -1.1422, 1.5708, 0.1758], a=3.1416, v=0.0133, r=Zone000)
  movej([-1.3968, -1.4265, -2.1456, -1.1403, 1.5708, 0.174], a=3.1416, v=0.0132, r=Zone000)
  movej([-1.3986, -1.437, -2.1368, -1.1386, 1.5708, 0.1722], a=3.1416, v=0.0131, r=Zone000)
  movej([-1.4003, -1.4474, -2.128, -1.137, 1.5708, 0.1705], a=3.1416, v=0.013, r=Zone000)
  movej([-1.402, -1.4577, -2.1191, -1.1356, 1.5708, 0.1688], a=3.1416, v=0.0129, r=Zone000)
  movej([-1.4037, -1.468, -2.1102, -1.1342, 1.5708, 0.1671], a=3.1416, v=0.0128, r=Zone000)
  movej([-1.4053, -1.4782, -2.1011, -1.133, 1.5708, 0.1655], a=3.1416, v=0.0128, r=Zone000)
  movej([-1.4069, -1.4884, -2.0921, -1.132, 1.5708, 0.1639], a=3.1416, v=0.0127, r=Zone000)
  movej([-1.4084, -1.4984, -2.0829, -1.131, 1.5708, 0.1623], a=3.1416, v=0.0126, r=Zone000)
  movej([-1.41, -1.5085, -2.0737, -1.1302, 1.5708, 0.1608], a=3.1416, v=0.0125, r=Zone000)
  movej([-1.4115, -1.5184, -2.0644, -1.1296, 1.5708, 0.1593], a=3.1416, v=0.0125, r=Zone000)
  movej([-1.413, -1.5283, -2.0551, -1.129, 1.5708, 0.1578], a=3.1416, v=0.0124, r=Zone000)
  movej([-1.4144, -1.5382, -2.0457, -1.1285, 1.5708, 0.1564], a=3.1416, v=0.0123, r=Zone000)
  movej([-1.4158, -1.548, -2.0362, -1.1282, 1.5708, 0.155], a=3.1416, v=0.0122, r=Zone000)
  movej([-1.4172, -1.5577, -2.0267, -1.128, 1.5708, 0.1536], a=3.1416, v=0.0122, r=Zone000)
  movej([-1.4186, -1.5674, -2.0171, -1.1279, 1.5708, 0.1522], a=3.1416, v=0.0121, r=Zone000)
  movej([-1.4199, -1.5771, -2.0074, -1.1279, 1.5708, 0.1509], a=3.1416, v=0.0121, r=Zone000)
  movej([-1.4213, -1.5867, -1.9977, -1.1281, 1.5708, 0.1495], a=3.1416, v=0.0122, r=Zone000)
  movej([-1.4226, -1.5962, -1.9879, -1.1283, 1.5708, 0.1482], a=3.1416, v=0.0122, r=Zone000)
  movej([-1.4238, -1.6057, -1.978, -1.1286, 1.5708, 0.147], a=3.1416, v=0.0123, r=Zone000)
  movej([-1.4251, -1.6152, -1.9681, -1.1291, 1.5708, 0.1457], a=3.1416, v=0.0124, r=Zone000)
  movej([-1.4263, -1.6246, -1.9582, -1.1296, 1.5708, 0.1445], a=3.1416, v=0.0125, r=Zone000)
  movej([-1.4275, -1.634, -1.9481, -1.1303, 1.5708, 0.1433], a=3.1416, v=0.0125, r=Zone000)
  movej([-1.4287, -1.6433, -1.938, -1.1311, 1.5708, 0.1421], a=3.1416, v=0.0126, r=Zone000)
  movej([-1.4299, -1.6526, -1.9278, -1.1319, 1.5708, 0.1409], a=3.1416, v=0.0127, r=Zone000)
  movej([-1.431, -1.6619, -1.9176, -1.1329, 1.5708, 0.1398], a=3.1416, v=0.0128, r=Zone000)
  movej([-1.4322, -1.6711, -1.9073, -1.1339, 1.5708, 0.1386], a=3.1416, v=0.0129, r=Zone000)
  movej([-1.4333, -1.6803, -1.897, -1.1351, 1.5708, 0.1375], a=3.1416, v=0.013, r=Zone000)
  movej([-1.4344, -1.6895, -1.8865, -1.1363, 1.5708, 0.1364], a=3.1416, v=0.013, r=Zone000)
  movej([-1.4351, -1.6954, -1.8798, -1.1372, 1.5708, 0.1357], a=3.1416, v=0.0131, r=Zone000)
  movej([-1.4277, -1.6902, -1.8857, -1.1364, 1.5708, 0.1431], a=3.1416, v=0.0092, r=Zone000)
  movej([-1.4202, -1.6851, -1.8916, -1.1357, 1.5708, 0.1506], a=3.1416, v=0.0093, r=Zone000)
  movej([-1.4127, -1.68, -1.8973, -1.135, 1.5708, 0.1581], a=3.1416, v=0.0094, r=Zone000)
  movej([-1.4052, -1.675, -1.903, -1.1344, 1.5708, 0.1656], a=3.1416, v=0.0095, r=Zone000)
  movej([-1.3975, -1.6699, -1.9087, -1.1338, 1.5708, 0.1733], a=3.1416, v=0.0095, r=Zone000)
  movej([-1.3899, -1.665, -1.9142, -1.1332, 1.5708, 0.1809], a=3.1416, v=0.0096, r=Zone000)
  movej([-1.3821, -1.6601, -1.9196, -1.1327, 1.5708, 0.1887], a=3.1416, v=0.0097, r=Zone000)
  movej([-1.3744, -1.6552, -1.925, -1.1322, 1.5708, 0.1964], a=3.1416, v=0.0097, r=Zone000)
  movej([-1.3665, -1.6504, -1.9303, -1.1317, 1.5708, 0.2043], a=3.1416, v=0.0098, r=Zone000)
  movej([-1.3586, -1.6456, -1.9356, -1.1313, 1.5708, 0.2122], a=3.1416, v=0.0099, r=Zone000)
  movej([-1.3507, -1.6408, -1.9407, -1.1308, 1.5708, 0.2201], a=3.1416, v=0.0099, r=Zone000)
  movej([-1.3427, -1.6361, -1.9458, -1.1305, 1.5708, 0.2281], a=3.1416, v=0.01, r=Zone000)
  movej([-1.3346, -1.6315, -1.9508, -1.1301, 1.5708, 0.2362], a=3.1416, v=0.0101, r=Zone000)
  movej([-1.3265, -1.6269, -1.9557, -1.1298, 1.5708, 0.2443], a=3.1416, v=0.0101, r=Zone000)
  movej([-1.3183, -1.6224, -1.9605, -1.1295, 1.5708, 0.2525], a=3.1416, v=0.0102, r=Zone000)
  movej([-1.3101, -1.6179, -1.9653, -1.1292, 1.5708, 0.2607], a=3.1416, v=0.0103, r=Zone000)
  movej([-1.3018, -1.6134, -1.97, -1.129, 1.5708, 0.269], a=3.1416, v=0.0103, r=Zone000)
  movej([-1.2935, -1.609, -1.9746, -1.1288, 1.5708, 0.2773], a=3.1416, v=0.0104, r=Zone000)
  movej([-1.2851, -1.6047, -1.9791, -1.1286, 1.5708, 0.2857], a=3.1416, v=0.0105, r=Zone000)
  movej([-1.2767, -1.6004, -1.9835, -1.1284, 1.5708, 0.2941], a=3.1416, v=0.0105, r=Zone000)
  movej([-1.2682, -1.5962, -1.9879, -1.1283, 1.5708, 0.3026], a=3.1416, v=0.0106, r=Zone000)
  movej([-1.2597, -1.592, -1.9922, -1.1282, 1.5708, 0.3111], a=3.1416, v=0.0107, r=Zone000)
  movej([-1.2511, -1.5879, -1.9964, -1.1281, 1.5708, 0.3197], a=3.1416, v=0.0107, r=Zone000)
  movej([-1.2425, -1.5839, -2.0005, -1.128, 1.5708, 0.3283], a=3.1416, v=0.0108, r=Zone000)
  movej([-1.2338, -1.5799, -2.0045, -1.128, 1.5708, 0.337], a=3.1416, v=0.0108, r=Zone000)
  movej([-1.2251, -1.576, -2.0085, -1.1279, 1.5708, 0.3457], a=3.1416, v=0.0109, r=Zone000)
  movej([-1.2164, -1.5721, -2.0124, -1.1279, 1.5708, 0.3544], a=3.1416, v=0.011, r=Zone000)
  movej([-1.2075, -1.5683, -2.0162, -1.1279, 1.5708, 0.3633], a=3.1416, v=0.011, r=Zone000)
  movej([-1.1987, -1.5646, -2.0199, -1.1279, 1.5708, 0.3721], a=3.1416, v=0.0111, r=Zone000)
  movej([-1.1898, -1.5609, -2.0235, -1.128, 1.5708, 0.381], a=3.1416, v=0.0111, r=Zone000)
  movej([-1.1809, -1.5573, -2.0271, -1.128, 1.5708, 0.3899], a=3.1416, v=0.0112, r=Zone000)
  movej([-1.1719, -1.5537, -2.0306, -1.1281, 1.5708, 0.3989], a=3.1416, v=0.0112, r=Zone000)
  movej([-1.1629, -1.5503, -2.034, -1.1282, 1.5708, 0.4079], a=3.1416, v=0.0113, r=Zone000)
  movej([-1.1538, -1.5469, -2.0373, -1.1283, 1.5708, 0.417], a=3.1416, v=0.0113, r=Zone000)
  movej([-1.148, -1.5392, -2.0307, -1.1426, 1.5708, 0.4228], a=3.1416, v=0.0127, r=Zone000)
  movej([-1.1534, -1.5328, -2.0367, -1.1428, 1.5708, 0.4174], a=3.1416, v=0.0079, r=Zone000)
  movej([-1.1588, -1.5265, -2.0428, -1.1431, 1.5708, 0.412], a=3.1416, v=0.0079, r=Zone000)
  movej([-1.1643, -1.5202, -2.0487, -1.1435, 1.5708, 0.4065], a=3.1416, v=0.0079, r=Zone000)
  movej([-1.17, -1.514, -2.0545, -1.1439, 1.5708, 0.4008], a=3.1416, v=0.0078, r=Zone000)
  movej([-1.1756, -1.5077, -2.0603, -1.1443, 1.5708, 0.3952], a=3.1416, v=0.0078, r=Zone000)
  movej([-1.1814, -1.5016, -2.066, -1.1448, 1.5708, 0.3894], a=3.1416, v=0.0077, r=Zone000)
  movej([-1.1872, -1.4954, -2.0716, -1.1453, 1.5708, 0.3836], a=3.1416, v=0.0077, r=Zone000)
  movej([-1.1932, -1.4893, -2.0772, -1.1459, 1.5708, 0.3776], a=3.1416, v=0.0076, r=Zone000)
  movej([-1.1992, -1.4832, -2.0827, -1.1465, 1.5708, 0.3716], a=3.1416, v=0.0076, r=Zone000)
  movej([-1.2052, -1.4772, -2.088, -1.1472, 1.5708, 0.3656], a=3.1416, v=0.0076, r=Zone000)
  movej([-1.2114, -1.4712, -2.0934, -1.1479, 1.5708, 0.3594], a=3.1416, v=0.0077, r=Zone000)
  movej([-1.2176, -1.4652, -2.0986, -1.1486, 1.5708, 0.3531], a=3.1416, v=0.0078, r=Zone000)
  movej([-1.224, -1.4593, -2.1037, -1.1493, 1.5708, 0.3468], a=3.1416, v=0.0079, r=Zone000)
  movej([-1.2304, -1.4534, -2.1088, -1.1501, 1.5708, 0.3404], a=3.1416, v=0.008, r=Zone000)
  movej([-1.2369, -1.4476, -2.1138, -1.151, 1.5708, 0.3339], a=3.1416, v=0.0081, r=Zone000)
  movej([-1.2435, -1.4418, -2.1187, -1.1518, 1.5708, 0.3273], a=3.1416, v=0.0082, r=Zone000)
  movej([-1.2502, -1.4361, -2.1236, -1.1527, 1.5708, 0.3206], a=3.1416, v=0.0083, r=Zone000)
  movej([-1.2569, -1.4304, -2.1283, -1.1536, 1.5708, 0.3139], a=3.1416, v=0.0085, r=Zone000)
  movej([-1.2638, -1.4248, -2.133, -1.1546, 1.5708, 0.307], a=3.1416, v=0.0086, r=Zone000)
  movej([-1.2707, -1.4192, -2.1376, -1.1556, 1.5708, 0.3], a=3.1416, v=0.0087, r=Zone000)
  movej([-1.2778, -1.4137, -2.1421, -1.1566, 1.5708, 0.293], a=3.1416, v=0.0088, r=Zone000)
  movej([-1.2849, -1.4083, -2.1465, -1.1576, 1.5708, 0.2859], a=3.1416, v=0.0089, r=Zone000)
  movej([-1.2922, -1.4029, -2.1509, -1.1587, 1.5708, 0.2786], a=3.1416, v=0.009, r=Zone000)
  movej([-1.2995, -1.3975, -2.1551, -1.1597, 1.5708, 0.2713], a=3.1416, v=0.0092, r=Zone000)
  movej([-1.3069, -1.3923, -2.1593, -1.1608, 1.5708, 0.2639], a=3.1416, v=0.0093, r=Zone000)
  movej([-1.3144, -1.387, -2.1634, -1.1619, 1.5708, 0.2564], a=3.1416, v=0.0094, r=Zone000)
  movej([-1.322, -1.3819, -2.1674, -1.163, 1.5708, 0.2488], a=3.1416, v=0.0095, r=Zone000)
  movej([-1.3297, -1.3768, -2.1714, -1.1642, 1.5708, 0.2411], a=3.1416, v=0.0096, r=Zone000)
  movej([-1.3375, -1.3718, -2.1752, -1.1653, 1.5708, 0.2333], a=3.1416, v=0.0098, r=Zone000)
  movej([-1.3454, -1.3669, -2.179, -1.1665, 1.5708, 0.2254], a=3.1416, v=0.0099, r=Zone000)
  movej([-1.3534, -1.362, -2.1827, -1.1677, 1.5708, 0.2174], a=3.1416, v=0.01, r=Zone000)
  movej([-1.3615, -1.3573, -2.1863, -1.1689, 1.5708, 0.2093], a=3.1416, v=0.0101, r=Zone000)
  movej([-1.3697, -1.3526, -2.1898, -1.17, 1.5708, 0.2011], a=3.1416, v=0.0103, r=Zone000)
  movej([-1.378, -1.3479, -2.1932, -1.1712, 1.5708, 0.1928], a=3.1416, v=0.0104, r=Zone000)
  movej([-1.3834, -1.345, -2.1954, -1.172, 1.5708, 0.1874], a=3.1416, v=0.0105, r=Zone000)
  movej([-1.3855, -1.3561, -2.1872, -1.1691, 1.5708, 0.1853], a=3.1416, v=0.0138, r=Zone000)
  movej([-1.3875, -1.3671, -2.1789, -1.1665, 1.5708, 0.1833], a=3.1416, v=0.0137, r=Zone000)
  movej([-1.3894, -1.378, -2.1705, -1.1639, 1.5708, 0.1814], a=3.1416, v=0.0136, r=Zone000)
  movej([-1.3913, -1.3888, -2.1621, -1.1616, 1.5708, 0.1795], a=3.1416, v=0.0135, r=Zone000)
  movej([-1.3932, -1.3995, -2.1536, -1.1593, 1.5708, 0.1776], a=3.1416, v=0.0134, r=Zone000)
  movej([-1.395, -1.4101, -2.145, -1.1572, 1.5708, 0.1758], a=3.1416, v=0.0133, r=Zone000)
  movej([-1.3968, -1.4207, -2.1364, -1.1553, 1.5708, 0.174], a=3.1416, v=0.0132, r=Zone000)
  movej([-1.3986, -1.4312, -2.1276, -1.1535, 1.5708, 0.1722], a=3.1416, v=0.0131, r=Zone000)
  movej([-1.4003, -1.4417, -2.1189, -1.1519, 1.5708, 0.1705], a=3.1416, v=0.013, r=Zone000)
  movej([-1.402, -1.452, -2.11, -1.1503, 1.5708, 0.1688], a=3.1416, v=0.013, r=Zone000)
  movej([-1.4037, -1.4623, -2.1011, -1.149, 1.5708, 0.1671], a=3.1416, v=0.0129, r=Zone000)
  movej([-1.4053, -1.4725, -2.0921, -1.1477, 1.5708, 0.1655], a=3.1416, v=0.0128, r=Zone000)
  movej([-1.4069, -1.4827, -2.0831, -1.1466, 1.5708, 0.1639], a=3.1416, v=0.0127, r=Zone000)
  movej([-1.4084, -1.4928, -2.074, -1.1456, 1.5708, 0.1623], a=3.1416, v=0.0126, r=Zone000)
  movej([-1.41, -1.5028, -2.0648, -1.1447, 1.5708, 0.1608], a=3.1416, v=0.0126, r=Zone000)
  movej([-1.4115, -1.5128, -2.0556, -1.144, 1.5708, 0.1593], a=3.1416, v=0.0125, r=Zone000)
  movej([-1.413, -1.5228, -2.0463, -1.1433, 1.5708, 0.1578], a=3.1416, v=0.0124, r=Zone000)
  movej([-1.4144, -1.5326, -2.0369, -1.1428, 1.5708, 0.1564], a=3.1416, v=0.0123, r=Zone000)
  movej([-1.4158, -1.5424, -2.0275, -1.1424, 1.5708, 0.155], a=3.1416, v=0.0123, r=Zone000)
  movej([-1.4172, -1.5522, -2.018, -1.1422, 1.5708, 0.1536], a=3.1416, v=0.0122, r=Zone000)
  movej([-1.4186, -1.5619, -2.0085, -1.142, 1.5708, 0.1522], a=3.1416, v=0.0121, r=Zone000)
  movej([-1.4199, -1.5716, -1.9988, -1.142, 1.5708, 0.1509], a=3.1416, v=0.0121, r=Zone000)
  movej([-1.4213, -1.5812, -1.9892, -1.142, 1.5708, 0.1495], a=3.1416, v=0.0121, r=Zone000)
  movej([-1.4226, -1.5908, -1.9794, -1.1422, 1.5708, 0.1482], a=3.1416, v=0.0122, r=Zone000)
  movej([-1.4238, -1.6003, -1.9696, -1.1425, 1.5708, 0.147], a=3.1416, v=0.0123, r=Zone000)
  movej([-1.4251, -1.6098, -1.9597, -1.1429, 1.5708, 0.1457], a=3.1416, v=0.0123, r=Zone000)
  movej([-1.4263, -1.6193, -1.9498, -1.1434, 1.5708, 0.1445], a=3.1416, v=0.0124, r=Zone000)
  movej([-1.4275, -1.6287, -1.9398, -1.144, 1.5708, 0.1433], a=3.1416, v=0.0125, r=Zone000)
  movej([-1.4287, -1.638, -1.9297, -1.1447, 1.5708, 0.1421], a=3.1416, v=0.0126, r=Zone000)
  movej([-1.4299, -1.6474, -1.9196, -1.1455, 1.5708, 0.1409], a=3.1416, v=0.0127, r=Zone000)
  movej([-1.431, -1.6567, -1.9094, -1.1463, 1.5708, 0.1398], a=3.1416, v=0.0128, r=Zone000)
  movej([-1.4322, -1.666, -1.8991, -1.1473, 1.5708, 0.1386], a=3.1416, v=0.0128, r=Zone000)
  movej([-1.4333, -1.6752, -1.8888, -1.1484, 1.5708, 0.1375], a=3.1416, v=0.0129, r=Zone000)
  movej([-1.4344, -1.6844, -1.8784, -1.1496, 1.5708, 0.1364], a=3.1416, v=0.013, r=Zone000)
  movej([-1.4351, -1.6903, -1.8717, -1.1504, 1.5708, 0.1357], a=3.1416, v=0.0131, r=Zone000)
  movej([-1.4277, -1.6851, -1.8776, -1.1497, 1.5708, 0.1431], a=3.1416, v=0.0092, r=Zone000)
  movej([-1.4202, -1.68, -1.8834, -1.149, 1.5708, 0.1506], a=3.1416, v=0.0093, r=Zone000)
  movej([-1.4127, -1.6748, -1.8891, -1.1484, 1.5708, 0.1581], a=3.1416, v=0.0094, r=Zone000)
  movej([-1.4052, -1.6698, -1.8948, -1.1478, 1.5708, 0.1656], a=3.1416, v=0.0095, r=Zone000)
  movej([-1.3975, -1.6648, -1.9004, -1.1472, 1.5708, 0.1733], a=3.1416, v=0.0095, r=Zone000)
  movej([-1.3899, -1.6598, -1.9059, -1.1467, 1.5708, 0.1809], a=3.1416, v=0.0096, r=Zone000)
  movej([-1.3821, -1.6548, -1.9114, -1.1462, 1.5708, 0.1887], a=3.1416, v=0.0097, r=Zone000)
  movej([-1.3744, -1.6499, -1.9168, -1.1457, 1.5708, 0.1964], a=3.1416, v=0.0097, r=Zone000)
  movej([-1.3665, -1.6451, -1.922, -1.1452, 1.5708, 0.2043], a=3.1416, v=0.0098, r=Zone000)
  movej([-1.3586, -1.6403, -1.9273, -1.1448, 1.5708, 0.2122], a=3.1416, v=0.0099, r=Zone000)
  movej([-1.3507, -1.6355, -1.9324, -1.1445, 1.5708, 0.2201], a=3.1416, v=0.0099, r=Zone000)
  movej([-1.3427, -1.6308, -1.9374, -1.1441, 1.5708, 0.2281], a=3.1416, v=0.01, r=Zone000)
  movej([-1.3346, -1.6262, -1.9424, -1.1438, 1.5708, 0.2362], a=3.1416, v=0.0101, r=Zone000)
  movej([-1.3265, -1.6216, -1.9473, -1.1435, 1.5708, 0.2443], a=3.1416, v=0.0101, r=Zone000)
  movej([-1.3183, -1.617, -1.9521, -1.1432, 1.5708, 0.2525], a=3.1416, v=0.0102, r=Zone000)
  movej([-1.3101, -1.6125, -1.9569, -1.143, 1.5708, 0.2607], a=3.1416, v=0.0103, r=Zone000)
  movej([-1.3018, -1.6081, -1.9615, -1.1428, 1.5708, 0.269], a=3.1416, v=0.0103, r=Zone000)
  movej([-1.2935, -1.6037, -1.9661, -1.1426, 1.5708, 0.2773], a=3.1416, v=0.0104, r=Zone000)
  movej([-1.2851, -1.5993, -1.9706, -1.1424, 1.5708, 0.2857], a=3.1416, v=0.0105, r=Zone000)
  movej([-1.2767, -1.595, -1.9751, -1.1423, 1.5708, 0.2941], a=3.1416, v=0.0105, r=Zone000)
  movej([-1.2682, -1.5908, -1.9794, -1.1422, 1.5708, 0.3026], a=3.1416, v=0.0106, r=Zone000)
  movej([-1.2597, -1.5866, -1.9837, -1.1421, 1.5708, 0.3111], a=3.1416, v=0.0107, r=Zone000)
  movej([-1.2511, -1.5825, -1.9879, -1.142, 1.5708, 0.3197], a=3.1416, v=0.0107, r=Zone000)
  movej([-1.2425, -1.5784, -1.992, -1.142, 1.5708, 0.3283], a=3.1416, v=0.0108, r=Zone000)
  movej([-1.2338, -1.5744, -1.996, -1.142, 1.5708, 0.337], a=3.1416, v=0.0108, r=Zone000)
  movej([-1.2251, -1.5705, -1.9999, -1.142, 1.5708, 0.3457], a=3.1416, v=0.0109, r=Zone000)
  movej([-1.2164, -1.5666, -2.0038, -1.142, 1.5708, 0.3544], a=3.1416, v=0.011, r=Zone000)
  movej([-1.2075, -1.5628, -2.0076, -1.142, 1.5708, 0.3633], a=3.1416, v=0.011, r=Zone000)
  movej([-1.1987, -1.5591, -2.0113, -1.142, 1.5708, 0.3721], a=3.1416, v=0.0111, r=Zone000)
  movej([-1.1898, -1.5554, -2.0149, -1.1421, 1.5708, 0.381], a=3.1416, v=0.0111, r=Zone000)
  movej([-1.1809, -1.5518, -2.0185, -1.1422, 1.5708, 0.3899], a=3.1416, v=0.0112, r=Zone000)
  movej([-1.1719, -1.5482, -2.0219, -1.1423, 1.5708, 0.3989], a=3.1416, v=0.0112, r=Zone000)
  movej([-1.1629, -1.5447, -2.0253, -1.1424, 1.5708, 0.4079], a=3.1416, v=0.0113, r=Zone000)
  movej([-1.1538, -1.5413, -2.0286, -1.1425, 1.5708, 0.417], a=3.1416, v=0.0113, r=Zone000)
  movej([-1.148, -1.5338, -2.0218, -1.1567, 1.5708, 0.4228], a=3.1416, v=0.0127, r=Zone000)
  movej([-1.1534, -1.5274, -2.0279, -1.157, 1.5708, 0.4174], a=3.1416, v=0.0079, r=Zone000)
  movej([-1.1588, -1.5211, -2.0339, -1.1574, 1.5708, 0.412], a=3.1416, v=0.0079, r=Zone000)
  movej([-1.1643, -1.5148, -2.0398, -1.1578, 1.5708, 0.4065], a=3.1416, v=0.0079, r=Zone000)
  movej([-1.17, -1.5086, -2.0456, -1.1582, 1.5708, 0.4008], a=3.1416, v=0.0078, r=Zone000)
  movej([-1.1756, -1.5023, -2.0514, -1.1587, 1.5708, 0.3952], a=3.1416, v=0.0078, r=Zone000)
  movej([-1.1814, -1.4961, -2.057, -1.1592, 1.5708, 0.3894], a=3.1416, v=0.0077, r=Zone000)
  movej([-1.1872, -1.49, -2.0626, -1.1598, 1.5708, 0.3836], a=3.1416, v=0.0077, r=Zone000)
  movej([-1.1932, -1.4838, -2.0681, -1.1604, 1.5708, 0.3776], a=3.1416, v=0.0077, r=Zone000)
  movej([-1.1992, -1.4778, -2.0736, -1.161, 1.5708, 0.3716], a=3.1416, v=0.0076, r=Zone000)
  movej([-1.2052, -1.4717, -2.0789, -1.1617, 1.5708, 0.3656], a=3.1416, v=0.0076, r=Zone000)
  movej([-1.2114, -1.4657, -2.0842, -1.1624, 1.5708, 0.3594], a=3.1416, v=0.0077, r=Zone000)
  movej([-1.2176, -1.4597, -2.0894, -1.1632, 1.5708, 0.3531], a=3.1416, v=0.0078, r=Zone000)
  movej([-1.224, -1.4538, -2.0946, -1.164, 1.5708, 0.3468], a=3.1416, v=0.0079, r=Zone000)
  movej([-1.2304, -1.4479, -2.0996, -1.1648, 1.5708, 0.3404], a=3.1416, v=0.008, r=Zone000)
  movej([-1.2369, -1.4421, -2.1046, -1.1657, 1.5708, 0.3339], a=3.1416, v=0.0081, r=Zone000)
  movej([-1.2435, -1.4363, -2.1095, -1.1666, 1.5708, 0.3273], a=3.1416, v=0.0082, r=Zone000)
  movej([-1.2502, -1.4306, -2.1143, -1.1675, 1.5708, 0.3206], a=3.1416, v=0.0083, r=Zone000)
  movej([-1.2569, -1.4249, -2.119, -1.1685, 1.5708, 0.3139], a=3.1416, v=0.0085, r=Zone000)
  movej([-1.2638, -1.4193, -2.1236, -1.1694, 1.5708, 0.307], a=3.1416, v=0.0086, r=Zone000)
  movej([-1.2707, -1.4137, -2.1282, -1.1705, 1.5708, 0.3], a=3.1416, v=0.0087, r=Zone000)
  movej([-1.2778, -1.4082, -2.1327, -1.1715, 1.5708, 0.293], a=3.1416, v=0.0088, r=Zone000)
  movej([-1.2849, -1.4027, -2.1371, -1.1725, 1.5708, 0.2859], a=3.1416, v=0.0089, r=Zone000)
  movej([-1.2922, -1.3973, -2.1414, -1.1736, 1.5708, 0.2786], a=3.1416, v=0.009, r=Zone000)
  movej([-1.2995, -1.392, -2.1457, -1.1747, 1.5708, 0.2713], a=3.1416, v=0.0092, r=Zone000)
  movej([-1.3069, -1.3867, -2.1498, -1.1758, 1.5708, 0.2639], a=3.1416, v=0.0093, r=Zone000)
  movej([-1.3144, -1.3815, -2.1539, -1.177, 1.5708, 0.2564], a=3.1416, v=0.0094, r=Zone000)
  movej([-1.322, -1.3764, -2.1579, -1.1781, 1.5708, 0.2488], a=3.1416, v=0.0095, r=Zone000)
  movej([-1.3297, -1.3713, -2.1618, -1.1793, 1.5708, 0.2411], a=3.1416, v=0.0096, r=Zone000)
  movej([-1.3375, -1.3663, -2.1656, -1.1805, 1.5708, 0.2333], a=3.1416, v=0.0098, r=Zone000)
  movej([-1.3454, -1.3614, -2.1694, -1.1816, 1.5708, 0.2254], a=3.1416, v=0.0099, r=Zone000)
  movej([-1.3534, -1.3565, -2.173, -1.1828, 1.5708, 0.2174], a=3.1416, v=0.01, r=Zone000)
  movej([-1.3615, -1.3517, -2.1766, -1.184, 1.5708, 0.2093], a=3.1416, v=0.0101, r=Zone000)
  movej([-1.3697, -1.347, -2.1801, -1.1852, 1.5708, 0.2011], a=3.1416, v=0.0103, r=Zone000)
  movej([-1.378, -1.3424, -2.1835, -1.1865, 1.5708, 0.1928], a=3.1416, v=0.0104, r=Zone000)
  movej([-1.3834, -1.3395, -2.1857, -1.1872, 1.5708, 0.1874], a=3.1416, v=0.0105, r=Zone000)
  movej([-1.3855, -1.3506, -2.1775, -1.1843, 1.5708, 0.1853], a=3.1416, v=0.0138, r=Zone000)
  movej([-1.3875, -1.3615, -2.1692, -1.1816, 1.5708, 0.1833], a=3.1416, v=0.0137, r=Zone000)
  movej([-1.3894, -1.3724, -2.1609, -1.179, 1.5708, 0.1814], a=3.1416, v=0.0136, r=Zone000)
  movej([-1.3913, -1.3832, -2.1526, -1.1766, 1.5708, 0.1795], a=3.1416, v=0.0135, r=Zone000)
  movej([-1.3932, -1.394, -2.1441, -1.1743, 1.5708, 0.1776], a=3.1416, v=0.0134, r=Zone000)
  movej([-1.395, -1.4046, -2.1356, -1.1722, 1.5708, 0.1758], a=3.1416, v=0.0133, r=Zone000)
  movej([-1.3968, -1.4152, -2.127, -1.1702, 1.5708, 0.174], a=3.1416, v=0.0132, r=Zone000)
  movej([-1.3986, -1.4257, -2.1183, -1.1683, 1.5708, 0.1722], a=3.1416, v=0.0131, r=Zone000)
  movej([-1.4003, -1.4362, -2.1096, -1.1666, 1.5708, 0.1705], a=3.1416, v=0.013, r=Zone000)
  movej([-1.402, -1.4465, -2.1008, -1.165, 1.5708, 0.1688], a=3.1416, v=0.013, r=Zone000)
  movej([-1.4037, -1.4568, -2.092, -1.1636, 1.5708, 0.1671], a=3.1416, v=0.0129, r=Zone000)
  movej([-1.4053, -1.4671, -2.083, -1.1623, 1.5708, 0.1655], a=3.1416, v=0.0128, r=Zone000)
  movej([-1.4069, -1.4772, -2.074, -1.1611, 1.5708, 0.1639], a=3.1416, v=0.0127, r=Zone000)
  movej([-1.4084, -1.4874, -2.065, -1.16, 1.5708, 0.1623], a=3.1416, v=0.0126, r=Zone000)
  movej([-1.41, -1.4974, -2.0559, -1.1591, 1.5708, 0.1608], a=3.1416, v=0.0126, r=Zone000)
  movej([-1.4115, -1.5074, -2.0467, -1.1583, 1.5708, 0.1593], a=3.1416, v=0.0125, r=Zone000)
  movej([-1.413, -1.5174, -2.0374, -1.1576, 1.5708, 0.1578], a=3.1416, v=0.0124, r=Zone000)
  movej([-1.4144, -1.5273, -2.0281, -1.1571, 1.5708, 0.1564], a=3.1416, v=0.0124, r=Zone000)
  movej([-1.4158, -1.5371, -2.0187, -1.1566, 1.5708, 0.155], a=3.1416, v=0.0123, r=Zone000)
  movej([-1.4172, -1.5469, -2.0092, -1.1563, 1.5708, 0.1536], a=3.1416, v=0.0122, r=Zone000)
  movej([-1.4186, -1.5566, -1.9997, -1.156, 1.5708, 0.1522], a=3.1416, v=0.0122, r=Zone000)
  movej([-1.4199, -1.5663, -1.9901, -1.1559, 1.5708, 0.1509], a=3.1416, v=0.0121, r=Zone000)
  movej([-1.4213, -1.5759, -1.9805, -1.1559, 1.5708, 0.1495], a=3.1416, v=0.0121, r=Zone000)
  movej([-1.4226, -1.5855, -1.9708, -1.1561, 1.5708, 0.1482], a=3.1416, v=0.0121, r=Zone000)
  movej([-1.4238, -1.5951, -1.961, -1.1563, 1.5708, 0.147], a=3.1416, v=0.0122, r=Zone000)
  movej([-1.4251, -1.6046, -1.9512, -1.1566, 1.5708, 0.1457], a=3.1416, v=0.0123, r=Zone000)
  movej([-1.4263, -1.6141, -1.9413, -1.157, 1.5708, 0.1445], a=3.1416, v=0.0124, r=Zone000)
  movej([-1.4275, -1.6235, -1.9313, -1.1576, 1.5708, 0.1433], a=3.1416, v=0.0125, r=Zone000)
  movej([-1.4287, -1.6329, -1.9212, -1.1582, 1.5708, 0.1421], a=3.1416, v=0.0125, r=Zone000)
  movej([-1.4299, -1.6423, -1.9111, -1.159, 1.5708, 0.1409], a=3.1416, v=0.0126, r=Zone000)
  movej([-1.431, -1.6516, -1.901, -1.1598, 1.5708, 0.1398], a=3.1416, v=0.0127, r=Zone000)
  movej([-1.4322, -1.6609, -1.8907, -1.1607, 1.5708, 0.1386], a=3.1416, v=0.0128, r=Zone000)
  movej([-1.4333, -1.6702, -1.8804, -1.1618, 1.5708, 0.1375], a=3.1416, v=0.0129, r=Zone000)
  movej([-1.4344, -1.6794, -1.8701, -1.1629, 1.5708, 0.1364], a=3.1416, v=0.013, r=Zone000)
  movej([-1.4351, -1.6853, -1.8634, -1.1637, 1.5708, 0.1357], a=3.1416, v=0.013, r=Zone000)
  movej([-1.4277, -1.6801, -1.8693, -1.163, 1.5708, 0.1431], a=3.1416, v=0.0092, r=Zone000)
  movej([-1.4202, -1.675, -1.8751, -1.1623, 1.5708, 0.1506], a=3.1416, v=0.0093, r=Zone000)
  movej([-1.4127, -1.6698, -1.8808, -1.1617, 1.5708, 0.1581], a=3.1416, v=0.0094, r=Zone000)
  movej([-1.4052, -1.6648, -1.8865, -1.1611, 1.5708, 0.1656], a=3.1416, v=0.0095, r=Zone000)
  movej([-1.3975, -1.6597, -1.8921, -1.1606, 1.5708, 0.1733], a=3.1416, v=0.0095, r=Zone000)
  movej([-1.3899, -1.6547, -1.8976, -1.1601, 1.5708, 0.1809], a=3.1416, v=0.0096, r=Zone000)
  movej([-1.3821, -1.6498, -1.903, -1.1596, 1.5708, 0.1887], a=3.1416, v=0.0097, r=Zone000)
  movej([-1.3744, -1.6449, -1.9083, -1.1592, 1.5708, 0.1964], a=3.1416, v=0.0097, r=Zone000)
  movej([-1.3665, -1.64, -1.9136, -1.1588, 1.5708, 0.2043], a=3.1416, v=0.0098, r=Zone000)
  movej([-1.3586, -1.6352, -1.9188, -1.1584, 1.5708, 0.2122], a=3.1416, v=0.0099, r=Zone000)
  movej([-1.3507, -1.6304, -1.9239, -1.158, 1.5708, 0.2201], a=3.1416, v=0.0099, r=Zone000)
  movej([-1.3427, -1.6257, -1.929, -1.1577, 1.5708, 0.2281], a=3.1416, v=0.01, r=Zone000)
  movej([-1.3346, -1.621, -1.9339, -1.1574, 1.5708, 0.2362], a=3.1416, v=0.0101, r=Zone000)
  movej([-1.3265, -1.6164, -1.9388, -1.1572, 1.5708, 0.2443], a=3.1416, v=0.0101, r=Zone000)
  movej([-1.3183, -1.6119, -1.9436, -1.1569, 1.5708, 0.2525], a=3.1416, v=0.0102, r=Zone000)
  movej([-1.3101, -1.6073, -1.9483, -1.1567, 1.5708, 0.2607], a=3.1416, v=0.0103, r=Zone000)
  movej([-1.3018, -1.6029, -1.953, -1.1565, 1.5708, 0.269], a=3.1416, v=0.0103, r=Zone000)
  movej([-1.2935, -1.5985, -1.9576, -1.1564, 1.5708, 0.2773], a=3.1416, v=0.0104, r=Zone000)
  movej([-1.2851, -1.5941, -1.962, -1.1563, 1.5708, 0.2857], a=3.1416, v=0.0105, r=Zone000)
  movej([-1.2767, -1.5898, -1.9664, -1.1561, 1.5708, 0.2941], a=3.1416, v=0.0105, r=Zone000)
  movej([-1.2682, -1.5856, -1.9708, -1.1561, 1.5708, 0.3026], a=3.1416, v=0.0106, r=Zone000)
  movej([-1.2597, -1.5814, -1.975, -1.156, 1.5708, 0.3111], a=3.1416, v=0.0107, r=Zone000)
  movej([-1.2511, -1.5772, -1.9792, -1.156, 1.5708, 0.3197], a=3.1416, v=0.0107, r=Zone000)
  movej([-1.2425, -1.5732, -1.9833, -1.1559, 1.5708, 0.3283], a=3.1416, v=0.0108, r=Zone000)
  movej([-1.2338, -1.5692, -1.9873, -1.1559, 1.5708, 0.337], a=3.1416, v=0.0108, r=Zone000)
  movej([-1.2251, -1.5652, -1.9912, -1.1559, 1.5708, 0.3457], a=3.1416, v=0.0109, r=Zone000)
  movej([-1.2164, -1.5613, -1.9951, -1.156, 1.5708, 0.3544], a=3.1416, v=0.011, r=Zone000)
  movej([-1.2075, -1.5575, -1.9989, -1.156, 1.5708, 0.3633], a=3.1416, v=0.011, r=Zone000)
  movej([-1.1987, -1.5537, -2.0025, -1.1561, 1.5708, 0.3721], a=3.1416, v=0.0111, r=Zone000)
  movej([-1.1898, -1.55, -2.0062, -1.1562, 1.5708, 0.381], a=3.1416, v=0.0111, r=Zone000)
  movej([-1.1809, -1.5464, -2.0097, -1.1563, 1.5708, 0.3899], a=3.1416, v=0.0112, r=Zone000)
  movej([-1.1719, -1.5429, -2.0131, -1.1564, 1.5708, 0.3989], a=3.1416, v=0.0112, r=Zone000)
  movej([-1.1629, -1.5394, -2.0165, -1.1565, 1.5708, 0.4079], a=3.1416, v=0.0113, r=Zone000)
  movej([-1.1538, -1.536, -2.0198, -1.1566, 1.5708, 0.417], a=3.1416, v=0.0113, r=Zone000)
  movej([-1.148, -1.5286, -2.0129, -1.1709, 1.5708, 0.4228], a=3.1416, v=0.0126, r=Zone000)
  movej([-1.1534, -1.5223, -2.0189, -1.1712, 1.5708, 0.4174], a=3.1416, v=0.008, r=Zone000)
  movej([-1.1588, -1.5159, -2.0249, -1.1716, 1.5708, 0.412], a=3.1416, v=0.0079, r=Zone000)
  movej([-1.1643, -1.5096, -2.0308, -1.172, 1.5708, 0.4065], a=3.1416, v=0.0079, r=Zone000)
  movej([-1.17, -1.5034, -2.0366, -1.1725, 1.5708, 0.4008], a=3.1416, v=0.0078, r=Zone000)
  movej([-1.1756, -1.4971, -2.0423, -1.173, 1.5708, 0.3952], a=3.1416, v=0.0078, r=Zone000)
  movej([-1.1814, -1.4909, -2.0479, -1.1736, 1.5708, 0.3894], a=3.1416, v=0.0078, r=Zone000)
  movej([-1.1872, -1.4847, -2.0535, -1.1742, 1.5708, 0.3836], a=3.1416, v=0.0077, r=Zone000)
  movej([-1.1932, -1.4786, -2.059, -1.1748, 1.5708, 0.3776], a=3.1416, v=0.0077, r=Zone000)
  movej([-1.1992, -1.4725, -2.0644, -1.1755, 1.5708, 0.3716], a=3.1416, v=0.0076, r=Zone000)
  movej([-1.2052, -1.4665, -2.0697, -1.1762, 1.5708, 0.3656], a=3.1416, v=0.0076, r=Zone000)
  movej([-1.2114, -1.4605, -2.075, -1.177, 1.5708, 0.3594], a=3.1416, v=0.0077, r=Zone000)
  movej([-1.2176, -1.4545, -2.0802, -1.1777, 1.5708, 0.3531], a=3.1416, v=0.0078, r=Zone000)
  movej([-1.224, -1.4486, -2.0853, -1.1786, 1.5708, 0.3468], a=3.1416, v=0.0079, r=Zone000)
  movej([-1.2304, -1.4427, -2.0903, -1.1794, 1.5708, 0.3404], a=3.1416, v=0.008, r=Zone000)
  movej([-1.2369, -1.4368, -2.0952, -1.1803, 1.5708, 0.3339], a=3.1416, v=0.0081, r=Zone000)
  movej([-1.2435, -1.4311, -2.1001, -1.1812, 1.5708, 0.3273], a=3.1416, v=0.0082, r=Zone000)
  movej([-1.2502, -1.4253, -2.1049, -1.1822, 1.5708, 0.3206], a=3.1416, v=0.0083, r=Zone000)
  movej([-1.2569, -1.4196, -2.1096, -1.1832, 1.5708, 0.3139], a=3.1416, v=0.0085, r=Zone000)
  movej([-1.2638, -1.414, -2.1142, -1.1842, 1.5708, 0.307], a=3.1416, v=0.0086, r=Zone000)
  movej([-1.2707, -1.4084, -2.1187, -1.1852, 1.5708, 0.3], a=3.1416, v=0.0087, r=Zone000)
  movej([-1.2778, -1.4029, -2.1232, -1.1863, 1.5708, 0.293], a=3.1416, v=0.0088, r=Zone000)
  movej([-1.2849, -1.3975, -2.1276, -1.1874, 1.5708, 0.2859], a=3.1416, v=0.0089, r=Zone000)
  movej([-1.2922, -1.3921, -2.1319, -1.1885, 1.5708, 0.2786], a=3.1416, v=0.009, r=Zone000)
  movej([-1.2995, -1.3867, -2.1361, -1.1896, 1.5708, 0.2713], a=3.1416, v=0.0092, r=Zone000)
  movej([-1.3069, -1.3814, -2.1402, -1.1907, 1.5708, 0.2639], a=3.1416, v=0.0093, r=Zone000)
  movej([-1.3144, -1.3762, -2.1443, -1.1919, 1.5708, 0.2564], a=3.1416, v=0.0094, r=Zone000)
  movej([-1.322, -1.3711, -2.1482, -1.1931, 1.5708, 0.2488], a=3.1416, v=0.0095, r=Zone000)
  movej([-1.3297, -1.366, -2.1521, -1.1943, 1.5708, 0.2411], a=3.1416, v=0.0096, r=Zone000)
  movej([-1.3375, -1.361, -2.1559, -1.1955, 1.5708, 0.2333], a=3.1416, v=0.0098, r=Zone000)
  movej([-1.3454, -1.3561, -2.1596, -1.1967, 1.5708, 0.2254], a=3.1416, v=0.0099, r=Zone000)
  movej([-1.3534, -1.3512, -2.1633, -1.1979, 1.5708, 0.2174], a=3.1416, v=0.01, r=Zone000)
  movej([-1.3615, -1.3465, -2.1668, -1.1991, 1.5708, 0.2093], a=3.1416, v=0.0101, r=Zone000)
  movej([-1.3697, -1.3418, -2.1703, -1.2003, 1.5708, 0.2011], a=3.1416, v=0.0103, r=Zone000)
  movej([-1.378, -1.3372, -2.1737, -1.2016, 1.5708, 0.1928], a=3.1416, v=0.0104, r=Zone000)
  movej([-1.3834, -1.3342, -2.1758, -1.2024, 1.5708, 0.1874], a=3.1416, v=0.0105, r=Zone000)
  movej([-1.3855, -1.3453, -2.1677, -1.1994, 1.5708, 0.1853], a=3.1416, v=0.0138, r=Zone000)
  movej([-1.3875, -1.3563, -2.1595, -1.1966, 1.5708, 0.1833], a=3.1416, v=0.0137, r=Zone000)
  movej([-1.3894, -1.3671, -2.1513, -1.194, 1.5708, 0.1814], a=3.1416, v=0.0136, r=Zone000)
  movej([-1.3913, -1.3779, -2.1429, -1.1915, 1.5708, 0.1795], a=3.1416, v=0.0135, r=Zone000)
  movej([-1.3932, -1.3887, -2.1345, -1.1892, 1.5708, 0.1776], a=3.1416, v=0.0134, r=Zone000)
  movej([-1.395, -1.3993, -2.1261, -1.187, 1.5708, 0.1758], a=3.1416, v=0.0133, r=Zone000)
  movej([-1.3968, -1.4099, -2.1175, -1.185, 1.5708, 0.174], a=3.1416, v=0.0132, r=Zone000)
  movej([-1.3986, -1.4204, -2.1089, -1.183, 1.5708, 0.1722], a=3.1416, v=0.0131, r=Zone000)
  movej([-1.4003, -1.4309, -2.1002, -1.1813, 1.5708, 0.1705], a=3.1416, v=0.0131, r=Zone000)
  movej([-1.402, -1.4413, -2.0915, -1.1796, 1.5708, 0.1688], a=3.1416, v=0.013, r=Zone000)
  movej([-1.4037, -1.4516, -2.0827, -1.1781, 1.5708, 0.1671], a=3.1416, v=0.0129, r=Zone000)
  movej([-1.4053, -1.4618, -2.0738, -1.1768, 1.5708, 0.1655], a=3.1416, v=0.0128, r=Zone000)
  movej([-1.4069, -1.472, -2.0648, -1.1755, 1.5708, 0.1639], a=3.1416, v=0.0127, r=Zone000)
  movej([-1.4084, -1.4821, -2.0558, -1.1744, 1.5708, 0.1623], a=3.1416, v=0.0127, r=Zone000)
  movej([-1.41, -1.4922, -2.0467, -1.1734, 1.5708, 0.1608], a=3.1416, v=0.0126, r=Zone000)
  movej([-1.4115, -1.5022, -2.0376, -1.1726, 1.5708, 0.1593], a=3.1416, v=0.0125, r=Zone000)
  movej([-1.413, -1.5122, -2.0284, -1.1718, 1.5708, 0.1578], a=3.1416, v=0.0124, r=Zone000)
  movej([-1.4144, -1.5221, -2.0191, -1.1712, 1.5708, 0.1564], a=3.1416, v=0.0124, r=Zone000)
  movej([-1.4158, -1.5319, -2.0098, -1.1707, 1.5708, 0.155], a=3.1416, v=0.0123, r=Zone000)
  movej([-1.4172, -1.5417, -2.0003, -1.1703, 1.5708, 0.1536], a=3.1416, v=0.0123, r=Zone000)
  movej([-1.4186, -1.5515, -1.9909, -1.17, 1.5708, 0.1522], a=3.1416, v=0.0122, r=Zone000)
  movej([-1.4199, -1.5612, -1.9813, -1.1699, 1.5708, 0.1509], a=3.1416, v=0.0121, r=Zone000)
  movej([-1.4213, -1.5709, -1.9717, -1.1698, 1.5708, 0.1495], a=3.1416, v=0.0121, r=Zone000)
  movej([-1.4226, -1.5805, -1.962, -1.1699, 1.5708, 0.1482], a=3.1416, v=0.0121, r=Zone000)
  movej([-1.4238, -1.5901, -1.9523, -1.17, 1.5708, 0.147], a=3.1416, v=0.0122, r=Zone000)
  movej([-1.4251, -1.5996, -1.9425, -1.1703, 1.5708, 0.1457], a=3.1416, v=0.0123, r=Zone000)
  movej([-1.4263, -1.6091, -1.9326, -1.1707, 1.5708, 0.1445], a=3.1416, v=0.0123, r=Zone000)
  movej([-1.4275, -1.6186, -1.9227, -1.1712, 1.5708, 0.1433], a=3.1416, v=0.0124, r=Zone000)
  movej([-1.4287, -1.628, -1.9127, -1.1717, 1.5708, 0.1421], a=3.1416, v=0.0125, r=Zone000)
  movej([-1.4299, -1.6374, -1.9026, -1.1724, 1.5708, 0.1409], a=3.1416, v=0.0126, r=Zone000)
  movej([-1.431, -1.6467, -1.8924, -1.1732, 1.5708, 0.1398], a=3.1416, v=0.0127, r=Zone000)
  movej([-1.4322, -1.6561, -1.8822, -1.1741, 1.5708, 0.1386], a=3.1416, v=0.0128, r=Zone000)
  movej([-1.4333, -1.6654, -1.872, -1.1751, 1.5708, 0.1375], a=3.1416, v=0.0128, r=Zone000)
  movej([-1.4344, -1.6746, -1.8616, -1.1761, 1.5708, 0.1364], a=3.1416, v=0.0129, r=Zone000)
  movej([-1.4351, -1.6806, -1.855, -1.1769, 1.5708, 0.1357], a=3.1416, v=0.013, r=Zone000)
  movej([-1.4277, -1.6753, -1.8608, -1.1762, 1.5708, 0.1431], a=3.1416, v=0.0092, r=Zone000)
  movej([-1.4202, -1.6702, -1.8666, -1.1756, 1.5708, 0.1506], a=3.1416, v=0.0093, r=Zone000)
  movej([-1.4127, -1.665, -1.8724, -1.175, 1.5708, 0.1581], a=3.1416, v=0.0094, r=Zone000)
  movej([-1.4052, -1.6599, -1.878, -1.1745, 1.5708, 0.1656], a=3.1416, v=0.0095, r=Zone000)
  movej([-1.3975, -1.6549, -1.8836, -1.174, 1.5708, 0.1733], a=3.1416, v=0.0095, r=Zone000)
  movej([-1.3899, -1.6499, -1.8891, -1.1735, 1.5708, 0.1809], a=3.1416, v=0.0096, r=Zone000)
  movej([-1.3821, -1.6449, -1.8945, -1.173, 1.5708, 0.1887], a=3.1416, v=0.0097, r=Zone000)
  movej([-1.3744, -1.64, -1.8998, -1.1726, 1.5708, 0.1964], a=3.1416, v=0.0097, r=Zone000)
  movej([-1.3665, -1.6351, -1.9051, -1.1722, 1.5708, 0.2043], a=3.1416, v=0.0098, r=Zone000)
  movej([-1.3586, -1.6303, -1.9102, -1.1719, 1.5708, 0.2122], a=3.1416, v=0.0099, r=Zone000)
  movej([-1.3507, -1.6255, -1.9153, -1.1716, 1.5708, 0.2201], a=3.1416, v=0.0099, r=Zone000)
  movej([-1.3427, -1.6208, -1.9204, -1.1713, 1.5708, 0.2281], a=3.1416, v=0.01, r=Zone000)
  movej([-1.3346, -1.6161, -1.9253, -1.171, 1.5708, 0.2362], a=3.1416, v=0.0101, r=Zone000)
  movej([-1.3265, -1.6114, -1.9302, -1.1708, 1.5708, 0.2443], a=3.1416, v=0.0101, r=Zone000)
  movej([-1.3183, -1.6069, -1.935, -1.1706, 1.5708, 0.2525], a=3.1416, v=0.0102, r=Zone000)
  movej([-1.3101, -1.6023, -1.9397, -1.1704, 1.5708, 0.2607], a=3.1416, v=0.0103, r=Zone000)
  movej([-1.3018, -1.5979, -1.9443, -1.1702, 1.5708, 0.269], a=3.1416, v=0.0103, r=Zone000)
  movej([-1.2935, -1.5934, -1.9488, -1.1701, 1.5708, 0.2773], a=3.1416, v=0.0104, r=Zone000)
  movej([-1.2851, -1.5891, -1.9533, -1.17, 1.5708, 0.2857], a=3.1416, v=0.0105, r=Zone000)
  movej([-1.2767, -1.5848, -1.9577, -1.1699, 1.5708, 0.2941], a=3.1416, v=0.0105, r=Zone000)
  movej([-1.2682, -1.5805, -1.962, -1.1699, 1.5708, 0.3026], a=3.1416, v=0.0106, r=Zone000)
  movej([-1.2597, -1.5763, -1.9663, -1.1698, 1.5708, 0.3111], a=3.1416, v=0.0107, r=Zone000)
  movej([-1.2511, -1.5722, -1.9704, -1.1698, 1.5708, 0.3197], a=3.1416, v=0.0107, r=Zone000)
  movej([-1.2425, -1.5681, -1.9745, -1.1698, 1.5708, 0.3283], a=3.1416, v=0.0108, r=Zone000)
  movej([-1.2338, -1.5641, -1.9785, -1.1698, 1.5708, 0.337], a=3.1416, v=0.0108, r=Zone000)
  movej([-1.2251, -1.5601, -1.9824, -1.1699, 1.5708, 0.3457], a=3.1416, v=0.0109, r=Zone000)
  movej([-1.2164, -1.5562, -1.9862, -1.1699, 1.5708, 0.3544], a=3.1416, v=0.011, r=Zone000)
  movej([-1.2075, -1.5524, -1.99, -1.17, 1.5708, 0.3633], a=3.1416, v=0.011, r=Zone000)
  movej([-1.1987, -1.5486, -1.9937, -1.1701, 1.5708, 0.3721], a=3.1416, v=0.0111, r=Zone000)
  movej([-1.1898, -1.5449, -1.9973, -1.1702, 1.5708, 0.381], a=3.1416, v=0.0111, r=Zone000)
  movej([-1.1809, -1.5413, -2.0008, -1.1703, 1.5708, 0.3899], a=3.1416, v=0.0112, r=Zone000)
  movej([-1.1719, -1.5377, -2.0042, -1.1705, 1.5708, 0.3989], a=3.1416, v=0.0112, r=Zone000)
  movej([-1.1629, -1.5342, -2.0076, -1.1706, 1.5708, 0.4079], a=3.1416, v=0.0113, r=Zone000)
  movej([-1.1538, -1.5308, -2.0108, -1.1708, 1.5708, 0.417], a=3.1416, v=0.0113, r=Zone000)
  movej([-1.148, -1.5237, -2.0038, -1.1849, 1.5708, 0.4228], a=3.1416, v=0.0126, r=Zone000)
  movej([-1.1534, -1.5173, -2.0098, -1.1853, 1.5708, 0.4174], a=3.1416, v=0.008, r=Zone000)
  movej([-1.1588, -1.5109, -2.0157, -1.1857, 1.5708, 0.412], a=3.1416, v=0.0079, r=Zone000)
  movej([-1.1643, -1.5046, -2.0216, -1.1862, 1.5708, 0.4065], a=3.1416, v=0.0079, r=Zone000)
  movej([-1.17, -1.4983, -2.0274, -1.1867, 1.5708, 0.4008], a=3.1416, v=0.0079, r=Zone000)
  movej([-1.1756, -1.4921, -2.0331, -1.1872, 1.5708, 0.3952], a=3.1416, v=0.0078, r=Zone000)
  movej([-1.1814, -1.4859, -2.0387, -1.1878, 1.5708, 0.3894], a=3.1416, v=0.0078, r=Zone000)
  movej([-1.1872, -1.4797, -2.0442, -1.1885, 1.5708, 0.3836], a=3.1416, v=0.0077, r=Zone000)
  movej([-1.1932, -1.4736, -2.0497, -1.1891, 1.5708, 0.3776], a=3.1416, v=0.0077, r=Zone000)
  movej([-1.1992, -1.4675, -2.0551, -1.1898, 1.5708, 0.3716], a=3.1416, v=0.0076, r=Zone000)
  movej([-1.2052, -1.4614, -2.0604, -1.1906, 1.5708, 0.3656], a=3.1416, v=0.0076, r=Zone000)
  movej([-1.2114, -1.4554, -2.0656, -1.1914, 1.5708, 0.3594], a=3.1416, v=0.0077, r=Zone000)
  movej([-1.2176, -1.4494, -2.0708, -1.1922, 1.5708, 0.3531], a=3.1416, v=0.0078, r=Zone000)
  movej([-1.224, -1.4435, -2.0758, -1.1931, 1.5708, 0.3468], a=3.1416, v=0.0079, r=Zone000)
  movej([-1.2304, -1.4376, -2.0808, -1.1939, 1.5708, 0.3404], a=3.1416, v=0.008, r=Zone000)
  movej([-1.2369, -1.4318, -2.0857, -1.1949, 1.5708, 0.3339], a=3.1416, v=0.0081, r=Zone000)
  movej([-1.2435, -1.426, -2.0906, -1.1958, 1.5708, 0.3273], a=3.1416, v=0.0082, r=Zone000)
  movej([-1.2502, -1.4202, -2.0953, -1.1968, 1.5708, 0.3206], a=3.1416, v=0.0083, r=Zone000)
  movej([-1.2569, -1.4146, -2.1, -1.1978, 1.5708, 0.3139], a=3.1416, v=0.0085, r=Zone000)
  movej([-1.2638, -1.4089, -2.1046, -1.1989, 1.5708, 0.307], a=3.1416, v=0.0086, r=Zone000)
  movej([-1.2707, -1.4034, -2.1091, -1.1999, 1.5708, 0.3], a=3.1416, v=0.0087, r=Zone000)
  movej([-1.2778, -1.3978, -2.1136, -1.201, 1.5708, 0.293], a=3.1416, v=0.0088, r=Zone000)
  movej([-1.2849, -1.3924, -2.1179, -1.2021, 1.5708, 0.2859], a=3.1416, v=0.0089, r=Zone000)
  movej([-1.2922, -1.387, -2.1222, -1.2032, 1.5708, 0.2786], a=3.1416, v=0.009, r=Zone000)
  movej([-1.2995, -1.3816, -2.1264, -1.2044, 1.5708, 0.2713], a=3.1416, v=0.0092, r=Zone000)
  movej([-1.3069, -1.3764, -2.1305, -1.2056, 1.5708, 0.2639], a=3.1416, v=0.0093, r=Zone000)
  movej([-1.3144, -1.3712, -2.1345, -1.2067, 1.5708, 0.2564], a=3.1416, v=0.0094, r=Zone000)
  movej([-1.322, -1.366, -2.1384, -1.2079, 1.5708, 0.2488], a=3.1416, v=0.0095, r=Zone000)
  movej([-1.3297, -1.361, -2.1423, -1.2091, 1.5708, 0.2411], a=3.1416, v=0.0096, r=Zone000)
  movej([-1.3375, -1.356, -2.1461, -1.2104, 1.5708, 0.2333], a=3.1416, v=0.0098, r=Zone000)
  movej([-1.3454, -1.351, -2.1498, -1.2116, 1.5708, 0.2254], a=3.1416, v=0.0099, r=Zone000)
  movej([-1.3534, -1.3462, -2.1534, -1.2128, 1.5708, 0.2174], a=3.1416, v=0.01, r=Zone000)
  movej([-1.3615, -1.3414, -2.1569, -1.2141, 1.5708, 0.2093], a=3.1416, v=0.0101, r=Zone000)
  movej([-1.3697, -1.3367, -2.1604, -1.2153, 1.5708, 0.2011], a=3.1416, v=0.0103, r=Zone000)
  movej([-1.378, -1.3321, -2.1637, -1.2166, 1.5708, 0.1928], a=3.1416, v=0.0104, r=Zone000)
  movej([-1.3834, -1.3292, -2.1658, -1.2174, 1.5708, 0.1874], a=3.1416, v=0.0105, r=Zone000)
  movej([-1.3855, -1.3402, -2.1578, -1.2144, 1.5708, 0.1853], a=3.1416, v=0.0138, r=Zone000)
  movej([-1.3875, -1.3512, -2.1497, -1.2115, 1.5708, 0.1833], a=3.1416, v=0.0137, r=Zone000)
  movej([-1.3894, -1.3621, -2.1414, -1.2089, 1.5708, 0.1814], a=3.1416, v=0.0136, r=Zone000)
  movej([-1.3913, -1.3729, -2.1332, -1.2063, 1.5708, 0.1795], a=3.1416, v=0.0135, r=Zone000)
  movej([-1.3932, -1.3836, -2.1248, -1.204, 1.5708, 0.1776], a=3.1416, v=0.0134, r=Zone000)
  movej([-1.395, -1.3943, -2.1164, -1.2017, 1.5708, 0.1758], a=3.1416, v=0.0133, r=Zone000)
  movej([-1.3968, -1.4048, -2.1079, -1.1996, 1.5708, 0.174], a=3.1416, v=0.0132, r=Zone000)
  movej([-1.3986, -1.4154, -2.0994, -1.1977, 1.5708, 0.1722], a=3.1416, v=0.0131, r=Zone000)
  movej([-1.4003, -1.4258, -2.0907, -1.1959, 1.5708, 0.1705], a=3.1416, v=0.0131, r=Zone000)
  movej([-1.402, -1.4362, -2.082, -1.1942, 1.5708, 0.1688], a=3.1416, v=0.013, r=Zone000)
  movej([-1.4037, -1.4465, -2.0733, -1.1926, 1.5708, 0.1671], a=3.1416, v=0.0129, r=Zone000)
  movej([-1.4053, -1.4568, -2.0644, -1.1912, 1.5708, 0.1655], a=3.1416, v=0.0128, r=Zone000)
  movej([-1.4069, -1.467, -2.0555, -1.1899, 1.5708, 0.1639], a=3.1416, v=0.0127, r=Zone000)
  movej([-1.4084, -1.4771, -2.0466, -1.1887, 1.5708, 0.1623], a=3.1416, v=0.0127, r=Zone000)
  movej([-1.41, -1.4872, -2.0375, -1.1877, 1.5708, 0.1608], a=3.1416, v=0.0126, r=Zone000)
  movej([-1.4115, -1.4972, -2.0284, -1.1868, 1.5708, 0.1593], a=3.1416, v=0.0125, r=Zone000)
  movej([-1.413, -1.5072, -2.0192, -1.186, 1.5708, 0.1578], a=3.1416, v=0.0125, r=Zone000)
  movej([-1.4144, -1.5171, -2.01, -1.1853, 1.5708, 0.1564], a=3.1416, v=0.0124, r=Zone000)
  movej([-1.4158, -1.527, -2.0007, -1.1847, 1.5708, 0.155], a=3.1416, v=0.0123, r=Zone000)
  movej([-1.4172, -1.5368, -1.9913, -1.1843, 1.5708, 0.1536], a=3.1416, v=0.0123, r=Zone000)
  movej([-1.4186, -1.5466, -1.9819, -1.184, 1.5708, 0.1522], a=3.1416, v=0.0122, r=Zone000)
  movej([-1.4199, -1.5563, -1.9724, -1.1837, 1.5708, 0.1509], a=3.1416, v=0.0122, r=Zone000)
  movej([-1.4213, -1.566, -1.9628, -1.1836, 1.5708, 0.1495], a=3.1416, v=0.0121, r=Zone000)
  movej([-1.4226, -1.5756, -1.9532, -1.1836, 1.5708, 0.1482], a=3.1416, v=0.0121, r=Zone000)
  movej([-1.4238, -1.5852, -1.9434, -1.1837, 1.5708, 0.147], a=3.1416, v=0.0121, r=Zone000)
  movej([-1.4251, -1.5948, -1.9337, -1.1839, 1.5708, 0.1457], a=3.1416, v=0.0122, r=Zone000)
  movej([-1.4263, -1.6043, -1.9238, -1.1843, 1.5708, 0.1445], a=3.1416, v=0.0123, r=Zone000)
  movej([-1.4275, -1.6138, -1.9139, -1.1847, 1.5708, 0.1433], a=3.1416, v=0.0124, r=Zone000)
  movej([-1.4287, -1.6232, -1.9039, -1.1852, 1.5708, 0.1421], a=3.1416, v=0.0125, r=Zone000)
  movej([-1.4299, -1.6326, -1.8939, -1.1858, 1.5708, 0.1409], a=3.1416, v=0.0126, r=Zone000)
  movej([-1.431, -1.642, -1.8838, -1.1866, 1.5708, 0.1398], a=3.1416, v=0.0126, r=Zone000)
  movej([-1.4322, -1.6514, -1.8736, -1.1874, 1.5708, 0.1386], a=3.1416, v=0.0127, r=Zone000)
  movej([-1.4333, -1.6607, -1.8634, -1.1883, 1.5708, 0.1375], a=3.1416, v=0.0128, r=Zone000)
  movej([-1.4344, -1.67, -1.853, -1.1894, 1.5708, 0.1364], a=3.1416, v=0.0129, r=Zone000)
  movej([-1.4351, -1.6759, -1.8464, -1.1901, 1.5708, 0.1357], a=3.1416, v=0.013, r=Zone000)
  movej([-1.4277, -1.6707, -1.8523, -1.1894, 1.5708, 0.1431], a=3.1416, v=0.0092, r=Zone000)
  movej([-1.4202, -1.6655, -1.858, -1.1888, 1.5708, 0.1506], a=3.1416, v=0.0093, r=Zone000)
  movej([-1.4127, -1.6603, -1.8637, -1.1883, 1.5708, 0.1581], a=3.1416, v=0.0094, r=Zone000)
  movej([-1.4052, -1.6552, -1.8694, -1.1878, 1.5708, 0.1656], a=3.1416, v=0.0095, r=Zone000)
  movej([-1.3975, -1.6502, -1.8749, -1.1873, 1.5708, 0.1733], a=3.1416, v=0.0095, r=Zone000)
  movej([-1.3899, -1.6451, -1.8804, -1.1868, 1.5708, 0.1809], a=3.1416, v=0.0096, r=Zone000)
  movej([-1.3821, -1.6402, -1.8858, -1.1864, 1.5708, 0.1887], a=3.1416, v=0.0097, r=Zone000)
  movej([-1.3744, -1.6352, -1.8911, -1.186, 1.5708, 0.1964], a=3.1416, v=0.0097, r=Zone000)
  movej([-1.3665, -1.6303, -1.8964, -1.1857, 1.5708, 0.2043], a=3.1416, v=0.0098, r=Zone000)
  movej([-1.3586, -1.6255, -1.9015, -1.1854, 1.5708, 0.2122], a=3.1416, v=0.0099, r=Zone000)
  movej([-1.3507, -1.6207, -1.9066, -1.1851, 1.5708, 0.2201], a=3.1416, v=0.0099, r=Zone000)
  movej([-1.3427, -1.616, -1.9116, -1.1848, 1.5708, 0.2281], a=3.1416, v=0.01, r=Zone000)
  movej([-1.3346, -1.6113, -1.9165, -1.1846, 1.5708, 0.2362], a=3.1416, v=0.0101, r=Zone000)
  movej([-1.3265, -1.6066, -1.9214, -1.1844, 1.5708, 0.2443], a=3.1416, v=0.0101, r=Zone000)
  movej([-1.3183, -1.602, -1.9262, -1.1842, 1.5708, 0.2525], a=3.1416, v=0.0102, r=Zone000)
  movej([-1.3101, -1.5975, -1.9309, -1.184, 1.5708, 0.2607], a=3.1416, v=0.0103, r=Zone000)
  movej([-1.3018, -1.593, -1.9355, -1.1839, 1.5708, 0.269], a=3.1416, v=0.0103, r=Zone000)
  movej([-1.2935, -1.5886, -1.94, -1.1838, 1.5708, 0.2773], a=3.1416, v=0.0104, r=Zone000)
  movej([-1.2851, -1.5842, -1.9445, -1.1837, 1.5708, 0.2857], a=3.1416, v=0.0105, r=Zone000)
  movej([-1.2767, -1.5799, -1.9488, -1.1837, 1.5708, 0.2941], a=3.1416, v=0.0105, r=Zone000)
  movej([-1.2682, -1.5756, -1.9531, -1.1836, 1.5708, 0.3026], a=3.1416, v=0.0106, r=Zone000)
  movej([-1.2597, -1.5714, -1.9574, -1.1836, 1.5708, 0.3111], a=3.1416, v=0.0107, r=Zone000)
  movej([-1.2511, -1.5673, -1.9615, -1.1836, 1.5708, 0.3197], a=3.1416, v=0.0107, r=Zone000)
  movej([-1.2425, -1.5632, -1.9656, -1.1836, 1.5708, 0.3283], a=3.1416, v=0.0108, r=Zone000)
  movej([-1.2338, -1.5592, -1.9695, -1.1837, 1.5708, 0.337], a=3.1416, v=0.0108, r=Zone000)
  movej([-1.2251, -1.5552, -1.9735, -1.1838, 1.5708, 0.3457], a=3.1416, v=0.0109, r=Zone000)
  movej([-1.2164, -1.5513, -1.9773, -1.1838, 1.5708, 0.3544], a=3.1416, v=0.011, r=Zone000)
  movej([-1.2075, -1.5474, -1.981, -1.1839, 1.5708, 0.3633], a=3.1416, v=0.011, r=Zone000)
  movej([-1.1987, -1.5437, -1.9847, -1.184, 1.5708, 0.3721], a=3.1416, v=0.0111, r=Zone000)
  movej([-1.1898, -1.54, -1.9883, -1.1842, 1.5708, 0.381], a=3.1416, v=0.0111, r=Zone000)
  movej([-1.1809, -1.5363, -1.9918, -1.1843, 1.5708, 0.3899], a=3.1416, v=0.0112, r=Zone000)
  movej([-1.1719, -1.5328, -1.9952, -1.1845, 1.5708, 0.3989], a=3.1416, v=0.0112, r=Zone000)
  movej([-1.1629, -1.5293, -1.9985, -1.1846, 1.5708, 0.4079], a=3.1416, v=0.0113, r=Zone000)
  movej([-1.1538, -1.5258, -2.0018, -1.1848, 1.5708, 0.417], a=3.1416, v=0.0113, r=Zone000)
  movej([-1.148, -1.5189, -1.9946, -1.1989, 1.5708, 0.4228], a=3.1416, v=0.0126, r=Zone000)
  movej([-1.1534, -1.5125, -2.0006, -1.1993, 1.5708, 0.4174], a=3.1416, v=0.008, r=Zone000)
  movej([-1.1588, -1.5061, -2.0065, -1.1998, 1.5708, 0.412], a=3.1416, v=0.0079, r=Zone000)
  movej([-1.1643, -1.4998, -2.0123, -1.2003, 1.5708, 0.4065], a=3.1416, v=0.0079, r=Zone000)
  movej([-1.17, -1.4935, -2.0181, -1.2008, 1.5708, 0.4008], a=3.1416, v=0.0079, r=Zone000)
  movej([-1.1756, -1.4873, -2.0237, -1.2014, 1.5708, 0.3952], a=3.1416, v=0.0078, r=Zone000)
  movej([-1.1814, -1.4811, -2.0293, -1.202, 1.5708, 0.3894], a=3.1416, v=0.0078, r=Zone000)
  movej([-1.1872, -1.4749, -2.0348, -1.2027, 1.5708, 0.3836], a=3.1416, v=0.0077, r=Zone000)
  movej([-1.1932, -1.4687, -2.0403, -1.2034, 1.5708, 0.3776], a=3.1416, v=0.0077, r=Zone000)
  movej([-1.1992, -1.4626, -2.0456, -1.2041, 1.5708, 0.3716], a=3.1416, v=0.0076, r=Zone000)
  movej([-1.2052, -1.4566, -2.0509, -1.2049, 1.5708, 0.3656], a=3.1416, v=0.0076, r=Zone000)
  movej([-1.2114, -1.4505, -2.0561, -1.2057, 1.5708, 0.3594], a=3.1416, v=0.0077, r=Zone000)
  movej([-1.2176, -1.4446, -2.0612, -1.2066, 1.5708, 0.3531], a=3.1416, v=0.0078, r=Zone000)
  movej([-1.224, -1.4386, -2.0663, -1.2075, 1.5708, 0.3468], a=3.1416, v=0.0079, r=Zone000)
  movej([-1.2304, -1.4328, -2.0713, -1.2084, 1.5708, 0.3404], a=3.1416, v=0.008, r=Zone000)
  movej([-1.2369, -1.4269, -2.0762, -1.2093, 1.5708, 0.3339], a=3.1416, v=0.0081, r=Zone000)
  movej([-1.2435, -1.4211, -2.081, -1.2103, 1.5708, 0.3273], a=3.1416, v=0.0082, r=Zone000)
  movej([-1.2502, -1.4154, -2.0857, -1.2113, 1.5708, 0.3206], a=3.1416, v=0.0083, r=Zone000)
  movej([-1.2569, -1.4097, -2.0903, -1.2123, 1.5708, 0.3139], a=3.1416, v=0.0085, r=Zone000)
  movej([-1.2638, -1.4041, -2.0949, -1.2134, 1.5708, 0.307], a=3.1416, v=0.0086, r=Zone000)
  movej([-1.2707, -1.3985, -2.0994, -1.2145, 1.5708, 0.3], a=3.1416, v=0.0087, r=Zone000)
  movej([-1.2778, -1.393, -2.1038, -1.2156, 1.5708, 0.293], a=3.1416, v=0.0088, r=Zone000)
  movej([-1.2849, -1.3875, -2.1081, -1.2167, 1.5708, 0.2859], a=3.1416, v=0.0089, r=Zone000)
  movej([-1.2922, -1.3821, -2.1124, -1.2179, 1.5708, 0.2786], a=3.1416, v=0.009, r=Zone000)
  movej([-1.2995, -1.3768, -2.1165, -1.2191, 1.5708, 0.2713], a=3.1416, v=0.0092, r=Zone000)
  movej([-1.3069, -1.3715, -2.1206, -1.2202, 1.5708, 0.2639], a=3.1416, v=0.0093, r=Zone000)
  movej([-1.3144, -1.3663, -2.1246, -1.2215, 1.5708, 0.2564], a=3.1416, v=0.0094, r=Zone000)
  movej([-1.322, -1.3612, -2.1285, -1.2227, 1.5708, 0.2488], a=3.1416, v=0.0095, r=Zone000)
  movej([-1.3297, -1.3561, -2.1324, -1.2239, 1.5708, 0.2411], a=3.1416, v=0.0096, r=Zone000)
  movej([-1.3375, -1.3511, -2.1361, -1.2251, 1.5708, 0.2333], a=3.1416, v=0.0098, r=Zone000)
  movej([-1.3454, -1.3462, -2.1398, -1.2264, 1.5708, 0.2254], a=3.1416, v=0.0099, r=Zone000)
  movej([-1.3534, -1.3414, -2.1434, -1.2276, 1.5708, 0.2174], a=3.1416, v=0.01, r=Zone000)
  movej([-1.3615, -1.3366, -2.1469, -1.2289, 1.5708, 0.2093], a=3.1416, v=0.0101, r=Zone000)
  movej([-1.3697, -1.3319, -2.1503, -1.2302, 1.5708, 0.2011], a=3.1416, v=0.0103, r=Zone000)
  movej([-1.378, -1.3273, -2.1537, -1.2314, 1.5708, 0.1928], a=3.1416, v=0.0104, r=Zone000)
  movej([-1.3834, -1.3244, -2.1558, -1.2322, 1.5708, 0.1874], a=3.1416, v=0.0105, r=Zone000)
  movej([-1.3855, -1.3354, -2.1478, -1.2292, 1.5708, 0.1853], a=3.1416, v=0.0138, r=Zone000)
  movej([-1.3875, -1.3464, -2.1397, -1.2263, 1.5708, 0.1833], a=3.1416, v=0.0137, r=Zone000)
  movej([-1.3894, -1.3572, -2.1315, -1.2236, 1.5708, 0.1814], a=3.1416, v=0.0136, r=Zone000)
  movej([-1.3913, -1.368, -2.1233, -1.2211, 1.5708, 0.1795], a=3.1416, v=0.0135, r=Zone000)
  movej([-1.3932, -1.3788, -2.115, -1.2186, 1.5708, 0.1776], a=3.1416, v=0.0134, r=Zone000)
  movej([-1.395, -1.3894, -2.1066, -1.2163, 1.5708, 0.1758], a=3.1416, v=0.0133, r=Zone000)
  movej([-1.3968, -1.4, -2.0982, -1.2142, 1.5708, 0.174], a=3.1416, v=0.0132, r=Zone000)
  movej([-1.3986, -1.4105, -2.0897, -1.2122, 1.5708, 0.1722], a=3.1416, v=0.0131, r=Zone000)
  movej([-1.4003, -1.4209, -2.0811, -1.2103, 1.5708, 0.1705], a=3.1416, v=0.0131, r=Zone000)
  movej([-1.402, -1.4313, -2.0725, -1.2086, 1.5708, 0.1688], a=3.1416, v=0.013, r=Zone000)
  movej([-1.4037, -1.4417, -2.0637, -1.207, 1.5708, 0.1671], a=3.1416, v=0.0129, r=Zone000)
  movej([-1.4053, -1.4519, -2.0549, -1.2055, 1.5708, 0.1655], a=3.1416, v=0.0128, r=Zone000)
  movej([-1.4069, -1.4621, -2.0461, -1.2042, 1.5708, 0.1639], a=3.1416, v=0.0128, r=Zone000)
  movej([-1.4084, -1.4723, -2.0372, -1.203, 1.5708, 0.1623], a=3.1416, v=0.0127, r=Zone000)
  movej([-1.41, -1.4824, -2.0282, -1.2019, 1.5708, 0.1608], a=3.1416, v=0.0126, r=Zone000)
  movej([-1.4115, -1.4924, -2.0191, -1.2009, 1.5708, 0.1593], a=3.1416, v=0.0125, r=Zone000)
  movej([-1.413, -1.5024, -2.01, -1.2001, 1.5708, 0.1578], a=3.1416, v=0.0125, r=Zone000)
  movej([-1.4144, -1.5123, -2.0008, -1.1993, 1.5708, 0.1564], a=3.1416, v=0.0124, r=Zone000)
  movej([-1.4158, -1.5222, -1.9915, -1.1987, 1.5708, 0.155], a=3.1416, v=0.0124, r=Zone000)
  movej([-1.4172, -1.532, -1.9822, -1.1982, 1.5708, 0.1536], a=3.1416, v=0.0123, r=Zone000)
  movej([-1.4186, -1.5418, -1.9728, -1.1978, 1.5708, 0.1522], a=3.1416, v=0.0122, r=Zone000)
  movej([-1.4199, -1.5516, -1.9633, -1.1975, 1.5708, 0.1509], a=3.1416, v=0.0122, r=Zone000)
  movej([-1.4213, -1.5613, -1.9538, -1.1974, 1.5708, 0.1495], a=3.1416, v=0.0121, r=Zone000)
  movej([-1.4226, -1.5709, -1.9441, -1.1973, 1.5708, 0.1482], a=3.1416, v=0.0121, r=Zone000)
  movej([-1.4238, -1.5805, -1.9345, -1.1974, 1.5708, 0.147], a=3.1416, v=0.0121, r=Zone000)
  movej([-1.4251, -1.5901, -1.9247, -1.1975, 1.5708, 0.1457], a=3.1416, v=0.0122, r=Zone000)
  movej([-1.4263, -1.5997, -1.9149, -1.1978, 1.5708, 0.1445], a=3.1416, v=0.0123, r=Zone000)
  movej([-1.4275, -1.6092, -1.905, -1.1982, 1.5708, 0.1433], a=3.1416, v=0.0123, r=Zone000)
  movej([-1.4287, -1.6186, -1.8951, -1.1987, 1.5708, 0.1421], a=3.1416, v=0.0124, r=Zone000)
  movej([-1.4299, -1.6281, -1.8851, -1.1992, 1.5708, 0.1409], a=3.1416, v=0.0125, r=Zone000)
  movej([-1.431, -1.6375, -1.875, -1.1999, 1.5708, 0.1398], a=3.1416, v=0.0126, r=Zone000)
  movej([-1.4322, -1.6468, -1.8649, -1.2007, 1.5708, 0.1386], a=3.1416, v=0.0127, r=Zone000)
  movej([-1.4333, -1.6562, -1.8546, -1.2016, 1.5708, 0.1375], a=3.1416, v=0.0128, r=Zone000)
  movej([-1.4344, -1.6655, -1.8443, -1.2025, 1.5708, 0.1364], a=3.1416, v=0.0129, r=Zone000)
  movej([-1.4351, -1.6715, -1.8377, -1.2032, 1.5708, 0.1357], a=3.1416, v=0.0129, r=Zone000)
  movej([-1.4277, -1.6662, -1.8436, -1.2026, 1.5708, 0.1431], a=3.1416, v=0.0092, r=Zone000)
  movej([-1.4202, -1.661, -1.8493, -1.2021, 1.5708, 0.1506], a=3.1416, v=0.0093, r=Zone000)
  movej([-1.4127, -1.6558, -1.855, -1.2015, 1.5708, 0.1581], a=3.1416, v=0.0094, r=Zone000)
  movej([-1.4052, -1.6507, -1.8606, -1.201, 1.5708, 0.1656], a=3.1416, v=0.0095, r=Zone000)
  movej([-1.3975, -1.6456, -1.8662, -1.2006, 1.5708, 0.1733], a=3.1416, v=0.0095, r=Zone000)
  movej([-1.3899, -1.6406, -1.8716, -1.2002, 1.5708, 0.1809], a=3.1416, v=0.0096, r=Zone000)
  movej([-1.3821, -1.6356, -1.877, -1.1998, 1.5708, 0.1887], a=3.1416, v=0.0097, r=Zone000)
  movej([-1.3744, -1.6307, -1.8823, -1.1994, 1.5708, 0.1964], a=3.1416, v=0.0097, r=Zone000)
  movej([-1.3665, -1.6258, -1.8875, -1.1991, 1.5708, 0.2043], a=3.1416, v=0.0098, r=Zone000)
  movej([-1.3586, -1.6209, -1.8927, -1.1988, 1.5708, 0.2122], a=3.1416, v=0.0099, r=Zone000)
  movej([-1.3507, -1.6161, -1.8978, -1.1985, 1.5708, 0.2201], a=3.1416, v=0.0099, r=Zone000)
  movej([-1.3427, -1.6114, -1.9027, -1.1983, 1.5708, 0.2281], a=3.1416, v=0.01, r=Zone000)
  movej([-1.3346, -1.6066, -1.9077, -1.1981, 1.5708, 0.2362], a=3.1416, v=0.0101, r=Zone000)
  movej([-1.3265, -1.602, -1.9125, -1.1979, 1.5708, 0.2443], a=3.1416, v=0.0101, r=Zone000)
  movej([-1.3183, -1.5974, -1.9173, -1.1977, 1.5708, 0.2525], a=3.1416, v=0.0102, r=Zone000)
  movej([-1.3101, -1.5928, -1.9219, -1.1976, 1.5708, 0.2607], a=3.1416, v=0.0103, r=Zone000)
  movej([-1.3018, -1.5883, -1.9265, -1.1975, 1.5708, 0.269], a=3.1416, v=0.0103, r=Zone000)
  movej([-1.2935, -1.5839, -1.9311, -1.1974, 1.5708, 0.2773], a=3.1416, v=0.0104, r=Zone000)
  movej([-1.2851, -1.5795, -1.9355, -1.1974, 1.5708, 0.2857], a=3.1416, v=0.0105, r=Zone000)
  movej([-1.2767, -1.5752, -1.9399, -1.1973, 1.5708, 0.2941], a=3.1416, v=0.0105, r=Zone000)
  movej([-1.2682, -1.5709, -1.9441, -1.1973, 1.5708, 0.3026], a=3.1416, v=0.0106, r=Zone000)
  movej([-1.2597, -1.5667, -1.9483, -1.1973, 1.5708, 0.3111], a=3.1416, v=0.0107, r=Zone000)
  movej([-1.2511, -1.5626, -1.9525, -1.1974, 1.5708, 0.3197], a=3.1416, v=0.0107, r=Zone000)
  movej([-1.2425, -1.5585, -1.9565, -1.1974, 1.5708, 0.3283], a=3.1416, v=0.0108, r=Zone000)
  movej([-1.2338, -1.5544, -1.9605, -1.1975, 1.5708, 0.337], a=3.1416, v=0.0108, r=Zone000)
  movej([-1.2251, -1.5505, -1.9644, -1.1976, 1.5708, 0.3457], a=3.1416, v=0.0109, r=Zone000)
  movej([-1.2164, -1.5465, -1.9682, -1.1977, 1.5708, 0.3544], a=3.1416, v=0.011, r=Zone000)
  movej([-1.2075, -1.5427, -1.9719, -1.1978, 1.5708, 0.3633], a=3.1416, v=0.011, r=Zone000)
  movej([-1.1987, -1.5389, -1.9755, -1.1979, 1.5708, 0.3721], a=3.1416, v=0.0111, r=Zone000)
  movej([-1.1898, -1.5352, -1.9791, -1.1981, 1.5708, 0.381], a=3.1416, v=0.0111, r=Zone000)
  movej([-1.1809, -1.5316, -1.9826, -1.1982, 1.5708, 0.3899], a=3.1416, v=0.0112, r=Zone000)
  movej([-1.1719, -1.528, -1.986, -1.1984, 1.5708, 0.3989], a=3.1416, v=0.0112, r=Zone000)
  movej([-1.1629, -1.5245, -1.9893, -1.1986, 1.5708, 0.4079], a=3.1416, v=0.0113, r=Zone000)
  movej([-1.1538, -1.521, -1.9926, -1.1988, 1.5708, 0.417], a=3.1416, v=0.0113, r=Zone000)
  movej([-1.148, -1.5143, -1.9853, -1.2128, 1.5708, 0.4228], a=3.1416, v=0.0125, r=Zone000)
  movej([-1.1534, -1.5079, -1.9912, -1.2133, 1.5708, 0.4174], a=3.1416, v=0.008, r=Zone000)
  movej([-1.1588, -1.5015, -1.9971, -1.2138, 1.5708, 0.412], a=3.1416, v=0.008, r=Zone000)
  movej([-1.1643, -1.4952, -2.0029, -1.2143, 1.5708, 0.4065], a=3.1416, v=0.0079, r=Zone000)
  movej([-1.17, -1.4889, -2.0086, -1.2149, 1.5708, 0.4008], a=3.1416, v=0.0079, r=Zone000)
  movej([-1.1756, -1.4826, -2.0143, -1.2155, 1.5708, 0.3952], a=3.1416, v=0.0078, r=Zone000)
  movej([-1.1814, -1.4764, -2.0198, -1.2161, 1.5708, 0.3894], a=3.1416, v=0.0078, r=Zone000)
  movej([-1.1872, -1.4702, -2.0253, -1.2168, 1.5708, 0.3836], a=3.1416, v=0.0077, r=Zone000)
  movej([-1.1932, -1.4641, -2.0307, -1.2176, 1.5708, 0.3776], a=3.1416, v=0.0077, r=Zone000)
  movej([-1.1992, -1.458, -2.0361, -1.2183, 1.5708, 0.3716], a=3.1416, v=0.0076, r=Zone000)
  movej([-1.2052, -1.4519, -2.0413, -1.2191, 1.5708, 0.3656], a=3.1416, v=0.0076, r=Zone000)
  movej([-1.2114, -1.4459, -2.0465, -1.22, 1.5708, 0.3594], a=3.1416, v=0.0077, r=Zone000)
  movej([-1.2176, -1.4399, -2.0516, -1.2209, 1.5708, 0.3531], a=3.1416, v=0.0078, r=Zone000)
  movej([-1.224, -1.434, -2.0566, -1.2218, 1.5708, 0.3468], a=3.1416, v=0.0079, r=Zone000)
  movej([-1.2304, -1.4281, -2.0616, -1.2227, 1.5708, 0.3404], a=3.1416, v=0.008, r=Zone000)
  movej([-1.2369, -1.4223, -2.0664, -1.2237, 1.5708, 0.3339], a=3.1416, v=0.0081, r=Zone000)
  movej([-1.2435, -1.4165, -2.0712, -1.2247, 1.5708, 0.3273], a=3.1416, v=0.0082, r=Zone000)
  movej([-1.2502, -1.4107, -2.0759, -1.2257, 1.5708, 0.3206], a=3.1416, v=0.0083, r=Zone000)
  movej([-1.2569, -1.4051, -2.0805, -1.2268, 1.5708, 0.3139], a=3.1416, v=0.0085, r=Zone000)
  movej([-1.2638, -1.3994, -2.0851, -1.2279, 1.5708, 0.307], a=3.1416, v=0.0086, r=Zone000)
  movej([-1.2707, -1.3939, -2.0896, -1.229, 1.5708, 0.3], a=3.1416, v=0.0087, r=Zone000)
  movej([-1.2778, -1.3883, -2.0939, -1.2301, 1.5708, 0.293], a=3.1416, v=0.0088, r=Zone000)
  movej([-1.2849, -1.3829, -2.0982, -1.2313, 1.5708, 0.2859], a=3.1416, v=0.0089, r=Zone000)
  movej([-1.2922, -1.3775, -2.1025, -1.2324, 1.5708, 0.2786], a=3.1416, v=0.009, r=Zone000)
  movej([-1.2995, -1.3722, -2.1066, -1.2336, 1.5708, 0.2713], a=3.1416, v=0.0092, r=Zone000)
  movej([-1.3069, -1.3669, -2.1107, -1.2348, 1.5708, 0.2639], a=3.1416, v=0.0093, r=Zone000)
  movej([-1.3144, -1.3617, -2.1146, -1.2361, 1.5708, 0.2564], a=3.1416, v=0.0094, r=Zone000)
  movej([-1.322, -1.3566, -2.1185, -1.2373, 1.5708, 0.2488], a=3.1416, v=0.0095, r=Zone000)
  movej([-1.3297, -1.3515, -2.1223, -1.2386, 1.5708, 0.2411], a=3.1416, v=0.0096, r=Zone000)
  movej([-1.3375, -1.3465, -2.1261, -1.2398, 1.5708, 0.2333], a=3.1416, v=0.0098, r=Zone000)
  movej([-1.3454, -1.3416, -2.1297, -1.2411, 1.5708, 0.2254], a=3.1416, v=0.0099, r=Zone000)
  movej([-1.3534, -1.3368, -2.1333, -1.2423, 1.5708, 0.2174], a=3.1416, v=0.01, r=Zone000)
  movej([-1.3615, -1.332, -2.1368, -1.2436, 1.5708, 0.2093], a=3.1416, v=0.0101, r=Zone000)
  movej([-1.3697, -1.3273, -2.1402, -1.2449, 1.5708, 0.2011], a=3.1416, v=0.0103, r=Zone000)
  movej([-1.378, -1.3227, -2.1435, -1.2462, 1.5708, 0.1928], a=3.1416, v=0.0104, r=Zone000)
  movej([-1.3834, -1.3198, -2.1456, -1.247, 1.5708, 0.1874], a=3.1416, v=0.0105, r=Zone000)
  movej([-1.3855, -1.3308, -2.1376, -1.2439, 1.5708, 0.1853], a=3.1416, v=0.0138, r=Zone000)
  movej([-1.3875, -1.3418, -2.1296, -1.241, 1.5708, 0.1833], a=3.1416, v=0.0137, r=Zone000)
  movej([-1.3894, -1.3526, -2.1215, -1.2383, 1.5708, 0.1814], a=3.1416, v=0.0136, r=Zone000)
  movej([-1.3913, -1.3634, -2.1133, -1.2357, 1.5708, 0.1795], a=3.1416, v=0.0135, r=Zone000)
  movej([-1.3932, -1.3741, -2.1051, -1.2332, 1.5708, 0.1776], a=3.1416, v=0.0134, r=Zone000)
  movej([-1.395, -1.3848, -2.0968, -1.2309, 1.5708, 0.1758], a=3.1416, v=0.0133, r=Zone000)
  movej([-1.3968, -1.3953, -2.0884, -1.2287, 1.5708, 0.174], a=3.1416, v=0.0132, r=Zone000)
  movej([-1.3986, -1.4058, -2.0799, -1.2266, 1.5708, 0.1722], a=3.1416, v=0.0131, r=Zone000)
  movej([-1.4003, -1.4163, -2.0714, -1.2247, 1.5708, 0.1705], a=3.1416, v=0.0131, r=Zone000)
  movej([-1.402, -1.4267, -2.0628, -1.2229, 1.5708, 0.1688], a=3.1416, v=0.013, r=Zone000)
  movej([-1.4037, -1.437, -2.0541, -1.2213, 1.5708, 0.1671], a=3.1416, v=0.0129, r=Zone000)
  movej([-1.4053, -1.4473, -2.0453, -1.2198, 1.5708, 0.1655], a=3.1416, v=0.0128, r=Zone000)
  movej([-1.4069, -1.4575, -2.0365, -1.2184, 1.5708, 0.1639], a=3.1416, v=0.0128, r=Zone000)
  movej([-1.4084, -1.4676, -2.0276, -1.2171, 1.5708, 0.1623], a=3.1416, v=0.0127, r=Zone000)
  movej([-1.41, -1.4777, -2.0187, -1.216, 1.5708, 0.1608], a=3.1416, v=0.0126, r=Zone000)
  movej([-1.4115, -1.4878, -2.0097, -1.215, 1.5708, 0.1593], a=3.1416, v=0.0126, r=Zone000)
  movej([-1.413, -1.4978, -2.0006, -1.2141, 1.5708, 0.1578], a=3.1416, v=0.0125, r=Zone000)
  movej([-1.4144, -1.5077, -1.9914, -1.2133, 1.5708, 0.1564], a=3.1416, v=0.0124, r=Zone000)
  movej([-1.4158, -1.5176, -1.9822, -1.2126, 1.5708, 0.155], a=3.1416, v=0.0124, r=Zone000)
  movej([-1.4172, -1.5274, -1.9729, -1.2121, 1.5708, 0.1536], a=3.1416, v=0.0123, r=Zone000)
  movej([-1.4186, -1.5372, -1.9635, -1.2116, 1.5708, 0.1522], a=3.1416, v=0.0123, r=Zone000)
  movej([-1.4199, -1.547, -1.9541, -1.2113, 1.5708, 0.1509], a=3.1416, v=0.0122, r=Zone000)
  movej([-1.4213, -1.5567, -1.9446, -1.2111, 1.5708, 0.1495], a=3.1416, v=0.0121, r=Zone000)
  movej([-1.4226, -1.5664, -1.935, -1.211, 1.5708, 0.1482], a=3.1416, v=0.0121, r=Zone000)
  movej([-1.4238, -1.576, -1.9254, -1.211, 1.5708, 0.147], a=3.1416, v=0.012, r=Zone000)
  movej([-1.4251, -1.5856, -1.9157, -1.2111, 1.5708, 0.1457], a=3.1416, v=0.0121, r=Zone000)
  movej([-1.4263, -1.5952, -1.9059, -1.2113, 1.5708, 0.1445], a=3.1416, v=0.0122, r=Zone000)
  movej([-1.4275, -1.6047, -1.896, -1.2116, 1.5708, 0.1433], a=3.1416, v=0.0123, r=Zone000)
  movej([-1.4287, -1.6142, -1.8861, -1.2121, 1.5708, 0.1421], a=3.1416, v=0.0124, r=Zone000)
  movej([-1.4299, -1.6237, -1.8761, -1.2126, 1.5708, 0.1409], a=3.1416, v=0.0125, r=Zone000)
  movej([-1.431, -1.6331, -1.8661, -1.2132, 1.5708, 0.1398], a=3.1416, v=0.0126, r=Zone000)
  movej([-1.4322, -1.6425, -1.856, -1.2139, 1.5708, 0.1386], a=3.1416, v=0.0127, r=Zone000)
  movej([-1.4333, -1.6519, -1.8458, -1.2148, 1.5708, 0.1375], a=3.1416, v=0.0127, r=Zone000)
  movej([-1.4344, -1.6612, -1.8355, -1.2157, 1.5708, 0.1364], a=3.1416, v=0.0128, r=Zone000)
  movej([-1.4351, -1.6672, -1.8289, -1.2163, 1.5708, 0.1357], a=3.1416, v=0.0129, r=Zone000)
  movej([-1.4277, -1.6619, -1.8347, -1.2158, 1.5708, 0.1431], a=3.1416, v=0.0092, r=Zone000)
  movej([-1.4202, -1.6567, -1.8405, -1.2152, 1.5708, 0.1506], a=3.1416, v=0.0093, r=Zone000)
  movej([-1.4127, -1.6515, -1.8461, -1.2147, 1.5708, 0.1581], a=3.1416, v=0.0094, r=Zone000)
  movej([-1.4052, -1.6464, -1.8517, -1.2143, 1.5708, 0.1656], a=3.1416, v=0.0095, r=Zone000)
  movej([-1.3975, -1.6413, -1.8573, -1.2139, 1.5708, 0.1733], a=3.1416, v=0.0095, r=Zone000)
  movej([-1.3899, -1.6362, -1.8627, -1.2135, 1.5708, 0.1809], a=3.1416, v=0.0096, r=Zone000)
  movej([-1.3821, -1.6312, -1.8681, -1.2131, 1.5708, 0.1887], a=3.1416, v=0.0097, r=Zone000)
  movej([-1.3744, -1.6263, -1.8734, -1.2128, 1.5708, 0.1964], a=3.1416, v=0.0097, r=Zone000)
  movej([-1.3665, -1.6214, -1.8786, -1.2125, 1.5708, 0.2043], a=3.1416, v=0.0098, r=Zone000)
  movej([-1.3586, -1.6165, -1.8837, -1.2122, 1.5708, 0.2122], a=3.1416, v=0.0099, r=Zone000)
  movej([-1.3507, -1.6117, -1.8888, -1.2119, 1.5708, 0.2201], a=3.1416, v=0.0099, r=Zone000)
  movej([-1.3427, -1.6069, -1.8937, -1.2117, 1.5708, 0.2281], a=3.1416, v=0.01, r=Zone000)
  movej([-1.3346, -1.6022, -1.8986, -1.2116, 1.5708, 0.2362], a=3.1416, v=0.0101, r=Zone000)
  movej([-1.3265, -1.5975, -1.9035, -1.2114, 1.5708, 0.2443], a=3.1416, v=0.0101, r=Zone000)
  movej([-1.3183, -1.5929, -1.9082, -1.2113, 1.5708, 0.2525], a=3.1416, v=0.0102, r=Zone000)
  movej([-1.3101, -1.5884, -1.9129, -1.2112, 1.5708, 0.2607], a=3.1416, v=0.0103, r=Zone000)
  movej([-1.3018, -1.5839, -1.9175, -1.2111, 1.5708, 0.269], a=3.1416, v=0.0103, r=Zone000)
  movej([-1.2935, -1.5794, -1.922, -1.211, 1.5708, 0.2773], a=3.1416, v=0.0104, r=Zone000)
  movej([-1.2851, -1.575, -1.9264, -1.211, 1.5708, 0.2857], a=3.1416, v=0.0105, r=Zone000)
  movej([-1.2767, -1.5707, -1.9307, -1.211, 1.5708, 0.2941], a=3.1416, v=0.0105, r=Zone000)
  movej([-1.2682, -1.5664, -1.935, -1.211, 1.5708, 0.3026], a=3.1416, v=0.0106, r=Zone000)
  movej([-1.2597, -1.5622, -1.9392, -1.211, 1.5708, 0.3111], a=3.1416, v=0.0107, r=Zone000)
  movej([-1.2511, -1.558, -1.9433, -1.2111, 1.5708, 0.3197], a=3.1416, v=0.0107, r=Zone000)
  movej([-1.2425, -1.5539, -1.9473, -1.2111, 1.5708, 0.3283], a=3.1416, v=0.0108, r=Zone000)
  movej([-1.2338, -1.5499, -1.9513, -1.2112, 1.5708, 0.337], a=3.1416, v=0.0108, r=Zone000)
  movej([-1.2251, -1.5459, -1.9552, -1.2113, 1.5708, 0.3457], a=3.1416, v=0.0109, r=Zone000)
  movej([-1.2164, -1.542, -1.9589, -1.2115, 1.5708, 0.3544], a=3.1416, v=0.011, r=Zone000)
  movej([-1.2075, -1.5381, -1.9627, -1.2116, 1.5708, 0.3633], a=3.1416, v=0.011, r=Zone000)
  movej([-1.1987, -1.5344, -1.9663, -1.2117, 1.5708, 0.3721], a=3.1416, v=0.0111, r=Zone000)
  movej([-1.1898, -1.5306, -1.9698, -1.2119, 1.5708, 0.381], a=3.1416, v=0.0111, r=Zone000)
  movej([-1.1809, -1.527, -1.9733, -1.2121, 1.5708, 0.3899], a=3.1416, v=0.0112, r=Zone000)
  movej([-1.1719, -1.5234, -1.9767, -1.2123, 1.5708, 0.3989], a=3.1416, v=0.0112, r=Zone000)
  movej([-1.1629, -1.5199, -1.98, -1.2125, 1.5708, 0.4079], a=3.1416, v=0.0113, r=Zone000)
  movej([-1.1538, -1.5165, -1.9832, -1.2127, 1.5708, 0.417], a=3.1416, v=0.0113, r=Zone000)
  movej([-1.148, -1.5099, -1.9758, -1.2267, 1.5708, 0.4228], a=3.1416, v=0.0125, r=Zone000)
  movej([-1.1534, -1.5035, -1.9817, -1.2272, 1.5708, 0.4174], a=3.1416, v=0.008, r=Zone000)
  movej([-1.1588, -1.4971, -1.9876, -1.2277, 1.5708, 0.412], a=3.1416, v=0.008, r=Zone000)
  movej([-1.1643, -1.4908, -1.9934, -1.2282, 1.5708, 0.4065], a=3.1416, v=0.0079, r=Zone000)
  movej([-1.17, -1.4845, -1.9991, -1.2288, 1.5708, 0.4008], a=3.1416, v=0.0079, r=Zone000)
  movej([-1.1756, -1.4782, -2.0047, -1.2295, 1.5708, 0.3952], a=3.1416, v=0.0078, r=Zone000)
  movej([-1.1814, -1.472, -2.0102, -1.2302, 1.5708, 0.3894], a=3.1416, v=0.0078, r=Zone000)
  movej([-1.1872, -1.4658, -2.0157, -1.2309, 1.5708, 0.3836], a=3.1416, v=0.0077, r=Zone000)
  movej([-1.1932, -1.4596, -2.0211, -1.2317, 1.5708, 0.3776], a=3.1416, v=0.0077, r=Zone000)
  movej([-1.1992, -1.4535, -2.0264, -1.2325, 1.5708, 0.3716], a=3.1416, v=0.0076, r=Zone000)
  movej([-1.2052, -1.4475, -2.0316, -1.2333, 1.5708, 0.3656], a=3.1416, v=0.0076, r=Zone000)
  movej([-1.2114, -1.4415, -2.0368, -1.2342, 1.5708, 0.3594], a=3.1416, v=0.0077, r=Zone000)
  movej([-1.2176, -1.4355, -2.0419, -1.2351, 1.5708, 0.3531], a=3.1416, v=0.0078, r=Zone000)
  movej([-1.224, -1.4295, -2.0468, -1.236, 1.5708, 0.3468], a=3.1416, v=0.0079, r=Zone000)
  movej([-1.2304, -1.4237, -2.0518, -1.237, 1.5708, 0.3404], a=3.1416, v=0.008, r=Zone000)
  movej([-1.2369, -1.4178, -2.0566, -1.238, 1.5708, 0.3339], a=3.1416, v=0.0081, r=Zone000)
  movej([-1.2435, -1.412, -2.0614, -1.239, 1.5708, 0.3273], a=3.1416, v=0.0082, r=Zone000)
  movej([-1.2502, -1.4063, -2.066, -1.2401, 1.5708, 0.3206], a=3.1416, v=0.0083, r=Zone000)
  movej([-1.2569, -1.4006, -2.0706, -1.2411, 1.5708, 0.3139], a=3.1416, v=0.0085, r=Zone000)
  movej([-1.2638, -1.395, -2.0752, -1.2423, 1.5708, 0.307], a=3.1416, v=0.0086, r=Zone000)
  movej([-1.2707, -1.3894, -2.0796, -1.2434, 1.5708, 0.3], a=3.1416, v=0.0087, r=Zone000)
  movej([-1.2778, -1.3839, -2.0839, -1.2445, 1.5708, 0.293], a=3.1416, v=0.0088, r=Zone000)
  movej([-1.2849, -1.3785, -2.0882, -1.2457, 1.5708, 0.2859], a=3.1416, v=0.0089, r=Zone000)
  movej([-1.2922, -1.3731, -2.0924, -1.2469, 1.5708, 0.2786], a=3.1416, v=0.009, r=Zone000)
  movej([-1.2995, -1.3677, -2.0965, -1.2481, 1.5708, 0.2713], a=3.1416, v=0.0092, r=Zone000)
  movej([-1.3069, -1.3625, -2.1006, -1.2493, 1.5708, 0.2639], a=3.1416, v=0.0093, r=Zone000)
  movej([-1.3144, -1.3573, -2.1045, -1.2506, 1.5708, 0.2564], a=3.1416, v=0.0094, r=Zone000)
  movej([-1.322, -1.3522, -2.1084, -1.2518, 1.5708, 0.2488], a=3.1416, v=0.0095, r=Zone000)
  movej([-1.3297, -1.3471, -2.1122, -1.2531, 1.5708, 0.2411], a=3.1416, v=0.0096, r=Zone000)
  movej([-1.3375, -1.3421, -2.1159, -1.2544, 1.5708, 0.2333], a=3.1416, v=0.0098, r=Zone000)
  movej([-1.3454, -1.3372, -2.1195, -1.2557, 1.5708, 0.2254], a=3.1416, v=0.0099, r=Zone000)
  movej([-1.3534, -1.3324, -2.1231, -1.2569, 1.5708, 0.2174], a=3.1416, v=0.01, r=Zone000)
  movej([-1.3615, -1.3276, -2.1265, -1.2582, 1.5708, 0.2093], a=3.1416, v=0.0101, r=Zone000)
  movej([-1.3697, -1.323, -2.1299, -1.2595, 1.5708, 0.2011], a=3.1416, v=0.0103, r=Zone000)
  movej([-1.378, -1.3184, -2.1332, -1.2608, 1.5708, 0.1928], a=3.1416, v=0.0104, r=Zone000)
  movej([-1.3834, -1.3155, -2.1353, -1.2616, 1.5708, 0.1874], a=3.1416, v=0.0105, r=Zone000)
  movej([-1.3855, -1.3265, -2.1274, -1.2586, 1.5708, 0.1853], a=3.1416, v=0.0137, r=Zone000)
  movej([-1.3875, -1.3374, -2.1194, -1.2556, 1.5708, 0.1833], a=3.1416, v=0.0136, r=Zone000)
  movej([-1.3894, -1.3482, -2.1113, -1.2528, 1.5708, 0.1814], a=3.1416, v=0.0136, r=Zone000)
  movej([-1.3913, -1.359, -2.1032, -1.2502, 1.5708, 0.1795], a=3.1416, v=0.0135, r=Zone000)
  movej([-1.3932, -1.3697, -2.095, -1.2477, 1.5708, 0.1776], a=3.1416, v=0.0134, r=Zone000)
  movej([-1.395, -1.3803, -2.0868, -1.2453, 1.5708, 0.1758], a=3.1416, v=0.0133, r=Zone000)
  movej([-1.3968, -1.3909, -2.0784, -1.2431, 1.5708, 0.174], a=3.1416, v=0.0132, r=Zone000)
  movej([-1.3986, -1.4014, -2.07, -1.241, 1.5708, 0.1722], a=3.1416, v=0.0131, r=Zone000)
  movej([-1.4003, -1.4118, -2.0615, -1.239, 1.5708, 0.1705], a=3.1416, v=0.0131, r=Zone000)
  movej([-1.402, -1.4222, -2.0529, -1.2372, 1.5708, 0.1688], a=3.1416, v=0.013, r=Zone000)
  movej([-1.4037, -1.4326, -2.0443, -1.2355, 1.5708, 0.1671], a=3.1416, v=0.0129, r=Zone000)
  movej([-1.4053, -1.4428, -2.0356, -1.234, 1.5708, 0.1655], a=3.1416, v=0.0128, r=Zone000)
  movej([-1.4069, -1.453, -2.0268, -1.2325, 1.5708, 0.1639], a=3.1416, v=0.0128, r=Zone000)
  movej([-1.4084, -1.4632, -2.018, -1.2312, 1.5708, 0.1623], a=3.1416, v=0.0127, r=Zone000)
  movej([-1.41, -1.4733, -2.0091, -1.23, 1.5708, 0.1608], a=3.1416, v=0.0126, r=Zone000)
  movej([-1.4115, -1.4833, -2.0001, -1.229, 1.5708, 0.1593], a=3.1416, v=0.0126, r=Zone000)
  movej([-1.413, -1.4933, -1.991, -1.228, 1.5708, 0.1578], a=3.1416, v=0.0125, r=Zone000)
  movej([-1.4144, -1.5033, -1.9819, -1.2272, 1.5708, 0.1564], a=3.1416, v=0.0124, r=Zone000)
  movej([-1.4158, -1.5132, -1.9727, -1.2265, 1.5708, 0.155], a=3.1416, v=0.0124, r=Zone000)
  movej([-1.4172, -1.523, -1.9635, -1.2259, 1.5708, 0.1536], a=3.1416, v=0.0123, r=Zone000)
  movej([-1.4186, -1.5329, -1.9541, -1.2254, 1.5708, 0.1522], a=3.1416, v=0.0123, r=Zone000)
  movej([-1.4199, -1.5426, -1.9447, -1.225, 1.5708, 0.1509], a=3.1416, v=0.0122, r=Zone000)
  movej([-1.4213, -1.5524, -1.9353, -1.2248, 1.5708, 0.1495], a=3.1416, v=0.0122, r=Zone000)
  movej([-1.4226, -1.562, -1.9257, -1.2246, 1.5708, 0.1482], a=3.1416, v=0.0121, r=Zone000)
  movej([-1.4238, -1.5717, -1.9161, -1.2246, 1.5708, 0.147], a=3.1416, v=0.0121, r=Zone000)
  movej([-1.4251, -1.5813, -1.9065, -1.2246, 1.5708, 0.1457], a=3.1416, v=0.0121, r=Zone000)
  movej([-1.4263, -1.5909, -1.8967, -1.2248, 1.5708, 0.1445], a=3.1416, v=0.0122, r=Zone000)
  movej([-1.4275, -1.6004, -1.8869, -1.2251, 1.5708, 0.1433], a=3.1416, v=0.0123, r=Zone000)
  movej([-1.4287, -1.6099, -1.877, -1.2254, 1.5708, 0.1421], a=3.1416, v=0.0124, r=Zone000)
  movej([-1.4299, -1.6194, -1.8671, -1.2259, 1.5708, 0.1409], a=3.1416, v=0.0124, r=Zone000)
  movej([-1.431, -1.6289, -1.857, -1.2265, 1.5708, 0.1398], a=3.1416, v=0.0125, r=Zone000)
  movej([-1.4322, -1.6383, -1.8469, -1.2272, 1.5708, 0.1386], a=3.1416, v=0.0126, r=Zone000)
  movej([-1.4333, -1.6477, -1.8368, -1.228, 1.5708, 0.1375], a=3.1416, v=0.0127, r=Zone000)
  movej([-1.4344, -1.657, -1.8265, -1.2288, 1.5708, 0.1364], a=3.1416, v=0.0128, r=Zone000)
  movej([-1.4351, -1.663, -1.8199, -1.2294, 1.5708, 0.1357], a=3.1416, v=0.0129, r=Zone000)
  movej([-1.4277, -1.6577, -1.8257, -1.2289, 1.5708, 0.1431], a=3.1416, v=0.0092, r=Zone000)
  movej([-1.4202, -1.6525, -1.8315, -1.2284, 1.5708, 0.1506], a=3.1416, v=0.0093, r=Zone000)
  movej([-1.4127, -1.6473, -1.8371, -1.2279, 1.5708, 0.1581], a=3.1416, v=0.0094, r=Zone000)
  movej([-1.4052, -1.6422, -1.8427, -1.2275, 1.5708, 0.1656], a=3.1416, v=0.0095, r=Zone000)
  movej([-1.3975, -1.6371, -1.8482, -1.2271, 1.5708, 0.1733], a=3.1416, v=0.0095, r=Zone000)
  movej([-1.3899, -1.632, -1.8537, -1.2267, 1.5708, 0.1809], a=3.1416, v=0.0096, r=Zone000)
  movej([-1.3821, -1.627, -1.859, -1.2264, 1.5708, 0.1887], a=3.1416, v=0.0097, r=Zone000)
  movej([-1.3744, -1.622, -1.8643, -1.2261, 1.5708, 0.1964], a=3.1416, v=0.0097, r=Zone000)
  movej([-1.3665, -1.6171, -1.8695, -1.2258, 1.5708, 0.2043], a=3.1416, v=0.0098, r=Zone000)
  movej([-1.3586, -1.6122, -1.8746, -1.2255, 1.5708, 0.2122], a=3.1416, v=0.0099, r=Zone000)
  movej([-1.3507, -1.6074, -1.8797, -1.2253, 1.5708, 0.2201], a=3.1416, v=0.0099, r=Zone000)
  movej([-1.3427, -1.6026, -1.8846, -1.2251, 1.5708, 0.2281], a=3.1416, v=0.01, r=Zone000)
  movej([-1.3346, -1.5979, -1.8895, -1.225, 1.5708, 0.2362], a=3.1416, v=0.0101, r=Zone000)
  movej([-1.3265, -1.5932, -1.8943, -1.2248, 1.5708, 0.2443], a=3.1416, v=0.0101, r=Zone000)
  movej([-1.3183, -1.5886, -1.899, -1.2247, 1.5708, 0.2525], a=3.1416, v=0.0102, r=Zone000)
  movej([-1.3101, -1.5841, -1.9037, -1.2247, 1.5708, 0.2607], a=3.1416, v=0.0103, r=Zone000)
  movej([-1.3018, -1.5795, -1.9082, -1.2246, 1.5708, 0.269], a=3.1416, v=0.0103, r=Zone000)
  movej([-1.2935, -1.5751, -1.9127, -1.2246, 1.5708, 0.2773], a=3.1416, v=0.0104, r=Zone000)
  movej([-1.2851, -1.5707, -1.9171, -1.2246, 1.5708, 0.2857], a=3.1416, v=0.0105, r=Zone000)
  movej([-1.2767, -1.5663, -1.9215, -1.2246, 1.5708, 0.2941], a=3.1416, v=0.0105, r=Zone000)
  movej([-1.2682, -1.5621, -1.9257, -1.2246, 1.5708, 0.3026], a=3.1416, v=0.0106, r=Zone000)
  movej([-1.2597, -1.5578, -1.9299, -1.2247, 1.5708, 0.3111], a=3.1416, v=0.0107, r=Zone000)
  movej([-1.2511, -1.5537, -1.934, -1.2247, 1.5708, 0.3197], a=3.1416, v=0.0107, r=Zone000)
  movej([-1.2425, -1.5496, -1.938, -1.2248, 1.5708, 0.3283], a=3.1416, v=0.0108, r=Zone000)
  movej([-1.2338, -1.5455, -1.942, -1.2249, 1.5708, 0.337], a=3.1416, v=0.0108, r=Zone000)
  movej([-1.2251, -1.5415, -1.9458, -1.2251, 1.5708, 0.3457], a=3.1416, v=0.0109, r=Zone000)
  movej([-1.2164, -1.5376, -1.9496, -1.2252, 1.5708, 0.3544], a=3.1416, v=0.011, r=Zone000)
  movej([-1.2075, -1.5338, -1.9533, -1.2253, 1.5708, 0.3633], a=3.1416, v=0.011, r=Zone000)
  movej([-1.1987, -1.53, -1.9569, -1.2255, 1.5708, 0.3721], a=3.1416, v=0.0111, r=Zone000)
  movej([-1.1898, -1.5262, -1.9604, -1.2257, 1.5708, 0.381], a=3.1416, v=0.0111, r=Zone000)
  movej([-1.1809, -1.5226, -1.9639, -1.2259, 1.5708, 0.3899], a=3.1416, v=0.0112, r=Zone000)
  movej([-1.1719, -1.519, -1.9673, -1.2261, 1.5708, 0.3989], a=3.1416, v=0.0112, r=Zone000)
  movej([-1.1629, -1.5155, -1.9706, -1.2263, 1.5708, 0.4079], a=3.1416, v=0.0113, r=Zone000)
  movej([-1.1538, -1.512, -1.9738, -1.2265, 1.5708, 0.417], a=3.1416, v=0.0113, r=Zone000)
end

